;FLAVOR:RepRap
;TIME:6453
;Filament used: 21.3746m
;Layer height: 0.3
;MINX:-65.033
;MINY:-47.656
;MINZ:0.48
;MAXX:64.75
;MAXY:48.171
;MAXZ:16.83
;POSTPROCESSED
;Generated with Cura_SteamEngine 4.13.1
T0
M190 S60
M104 S220
M109 S220
M82 ;absolute extrusion mode
G28 ;Home
G1 Z15.0 F6000 ;Move the platform down 15mm
;Prime the extruder
G92 E0
G1 F200 E3
G92 E0
M83 ;relative extrusion mode
G1 F1500 E-6.5
;LAYER_COUNT:50
;LAYER:-6
M107 P1
M204 T5000
M566 X1800 Y1800
G0 F7200 X-11.134 Y45.288 Z0.48
M204 P3000
M566 X1200 Y1200
;TYPE:SUPPORT-INTERFACE
G1 F1500 E6.5
G1 F2250 X-11.819 Y45.172 E0.13865
G1 X-12.489 Y45.144 E0.13382
G1 X-12.759 Y45.148 E0.05389
G1 X-13.664 Y45.147 E0.1806
G1 X-14.658 Y45.111 E0.19849
G1 X-14.799 Y45.101 E0.02821
G1 X-15.672 Y45.004 E0.17529
G1 X-16.116 Y44.929 E0.08986
G1 X-17.071 Y44.842 E0.19137
G1 X-17.829 Y44.841 E0.15127
G1 X-17.901 Y44.839 E0.01437
G1 X-18.579 Y44.854 E0.13534
G1 X-19.25 Y44.955 E0.13541
G1 X-19.902 Y45.094 E0.13304
G1 X-20.173 Y45.143 E0.05496
G1 X-20.834 Y45.304 E0.13577
G1 X-21.479 Y45.552 E0.1379
G1 X-21.915 Y45.775 E0.09773
G1 X-22.707 Y46.23 E0.18228
G1 X-22.862 Y46.31 E0.03481
G1 X-23.674 Y46.699 E0.17968
G1 X-23.828 Y46.765 E0.03344
G1 X-24.647 Y47.086 E0.17555
G1 X-24.808 Y47.143 E0.03408
G1 X-25.653 Y47.405 E0.17655
G1 X-25.848 Y47.458 E0.04033
G1 X-26.675 Y47.649 E0.16938
G1 X-26.878 Y47.689 E0.04129
G1 X-27.717 Y47.819 E0.16943
G1 X-27.935 Y47.844 E0.04379
G1 X-28.76 Y47.912 E0.1652
G1 X-28.982 Y47.921 E0.04434
G1 X-30.216 Y47.916 E0.24626
G1 X-30.353 Y47.912 E0.02735
G1 X-31.641 Y47.845 E0.25738
G1 X-31.889 Y47.838 E0.04951
G1 X-33.416 Y47.831 E0.30473
G1 X-33.766 Y47.825 E0.06986
G1 X-35.901 Y47.764 E0.42624
G1 X-36.034 Y47.757 E0.02658
G1 X-37.433 Y47.645 E0.28008
G1 X-37.513 Y47.636 E0.01607
G1 X-39.528 Y47.368 E0.40566
G1 X-40.475 Y47.208 E0.19166
G1 X-40.616 Y47.178 E0.02877
G1 X-41.507 Y46.959 E0.1831
G1 X-42.128 Y46.763 E0.12995
G1 X-42.786 Y46.593 E0.13562
G1 X-43.483 Y46.505 E0.1402
G1 X-44.423 Y46.53 E0.18765
G1 X-44.648 Y46.548 E0.04504
G1 X-45.548 Y46.583 E0.17974
G1 X-45.707 Y46.584 E0.03173
G1 X-46.609 Y46.552 E0.18012
G1 X-46.781 Y46.54 E0.03441
G1 X-47.627 Y46.449 E0.1698
G1 X-47.841 Y46.417 E0.04318
G1 X-48.969 Y46.202 E0.22916
G1 X-50.73 Y45.786 E0.3611
G1 X-51.704 Y45.519 E0.20154
G1 X-51.851 Y45.472 E0.0308
G1 X-52.725 Y45.161 E0.18513
G1 X-52.852 Y45.11 E0.02731
G1 X-53.668 Y44.75 E0.17798
G1 X-53.822 Y44.675 E0.03418
G1 X-54.61 Y44.257 E0.17801
G1 X-54.765 Y44.168 E0.03567
G1 X-55.513 Y43.695 E0.17661
G1 X-55.66 Y43.596 E0.03537
G1 X-56.361 Y43.079 E0.17382
G1 X-56.49 Y42.977 E0.03282
G1 X-57.304 Y42.276 E0.21438
G1 X-57.369 Y42.218 E0.01738
G1 X-58.168 Y41.47 E0.21842
G1 X-58.289 Y41.353 E0.03359
G1 X-58.922 Y40.716 E0.17921
G1 X-59.022 Y40.607 E0.02952
G1 X-59.606 Y39.928 E0.17873
G1 X-59.729 Y39.771 E0.0398
G1 X-60.234 Y39.087 E0.16967
G1 X-60.347 Y38.922 E0.03991
G1 X-60.814 Y38.183 E0.17445
G1 X-60.9 Y38.034 E0.03433
G1 X-61.321 Y37.247 E0.17811
G1 X-61.397 Y37.09 E0.03481
G1 X-61.756 Y36.28 E0.17681
G1 X-61.815 Y36.133 E0.03161
G1 X-62.099 Y35.348 E0.16659
G1 X-62.14 Y35.232 E0.02455
G1 X-62.39 Y34.462 E0.16156
G1 X-62.428 Y34.335 E0.02645
G1 X-62.676 Y33.468 E0.17996
G1 X-62.717 Y33.299 E0.0347
G1 X-62.899 Y32.424 E0.17835
G1 X-62.928 Y32.257 E0.03383
G1 X-63.045 Y31.368 E0.17894
G1 X-63.062 Y31.186 E0.03648
G1 X-63.113 Y30.317 E0.17372
G1 X-63.117 Y30.168 E0.02975
G1 X-63.104 Y29.24 E0.18521
G1 X-63.098 Y29.117 E0.02458
G1 X-63.02 Y28.216 E0.18048
G1 X-62.917 Y27.379 E0.16829
G1 X-62.933 Y27.367 E0.00399
G1 X-62.954 Y26.672 E0.13876
G1 X-63.062 Y25.987 E0.13839
G1 X-63.213 Y25.447 E0.1119
G1 X-63.367 Y24.988 E0.09662
G1 X-63.63 Y24.101 E0.18463
G1 X-63.666 Y23.975 E0.02615
G1 X-63.892 Y23.094 E0.18151
G1 X-63.926 Y22.938 E0.03186
G1 X-64.085 Y22.063 E0.17748
G1 X-64.11 Y21.886 E0.03567
G1 X-64.203 Y21.013 E0.1752
G1 X-64.215 Y20.838 E0.03501
G1 X-64.245 Y19.946 E0.17811
G1 X-64.244 Y19.791 E0.03093
G1 X-64.209 Y18.897 E0.17854
G1 X-64.196 Y18.72 E0.03542
G1 X-64.095 Y17.83 E0.17875
G1 X-64.076 Y17.701 E0.02602
G1 X-63.948 Y17.023 E0.13769
G1 X-63.864 Y16.349 E0.13554
G1 X-63.866 Y15.654 E0.1387
G1 X-63.954 Y14.972 E0.13723
G1 X-64.047 Y14.577 E0.08098
G1 X-64.242 Y13.701 E0.17909
G1 X-64.269 Y13.554 E0.02983
G1 X-64.401 Y12.657 E0.18093
G1 X-64.416 Y12.518 E0.0279
G1 X-64.485 Y11.603 E0.18312
G1 X-64.499 Y11.02 E0.11638
G1 X-64.5 Y-32.888 E8.76232
G1 X-64.464 Y-33.89 E0.20009
G1 X-64.453 Y-34.04 E0.03001
G1 X-64.355 Y-34.923 E0.17729
G1 X-64.331 Y-35.091 E0.03387
G1 X-64.163 Y-35.999 E0.18428
G1 X-64.138 Y-36.112 E0.0231
G1 X-63.908 Y-36.993 E0.18171
G1 X-63.852 Y-37.179 E0.03876
G1 X-63.577 Y-37.986 E0.17014
G1 X-63.503 Y-38.179 E0.04125
G1 X-63.171 Y-38.963 E0.16991
G1 X-63.091 Y-39.134 E0.03767
G1 X-62.675 Y-39.942 E0.18136
G1 X-62.604 Y-40.068 E0.02886
G1 X-62.139 Y-40.832 E0.17848
G1 X-62.042 Y-40.977 E0.03481
G1 X-61.525 Y-41.701 E0.17754
G1 X-61.434 Y-41.82 E0.0299
G1 X-60.849 Y-42.522 E0.18236
G1 X-60.761 Y-42.621 E0.02643
G1 X-60.122 Y-43.285 E0.1839
G1 X-60.004 Y-43.398 E0.0326
G1 X-59.343 Y-43.992 E0.17735
G1 X-59.224 Y-44.09 E0.03076
G1 X-58.516 Y-44.637 E0.17855
G1 X-58.357 Y-44.75 E0.03893
G1 X-57.625 Y-45.236 E0.17534
G1 X-57.488 Y-45.319 E0.03197
G1 X-56.711 Y-45.755 E0.1778
G1 X-56.572 Y-45.827 E0.03124
G1 X-55.734 Y-46.221 E0.18479
G1 X-55.613 Y-46.272 E0.0262
G1 X-54.758 Y-46.599 E0.18268
G1 X-54.611 Y-46.65 E0.03105
G1 X-53.749 Y-46.909 E0.17962
G1 X-53.611 Y-46.946 E0.02851
G1 X-52.707 Y-47.148 E0.18485
G1 X-52.574 Y-47.172 E0.02697
G1 X-51.663 Y-47.307 E0.18379
G1 X-51.524 Y-47.322 E0.0279
G1 X-50.612 Y-47.391 E0.18252
G1 X-50.026 Y-47.405 E0.11698
G1 X49.966 Y-47.406 E19.95448
G1 X50.993 Y-47.369 E0.20508
G1 X51.134 Y-47.359 E0.02821
G1 X52.024 Y-47.26 E0.1787
G1 X52.188 Y-47.236 E0.03308
G1 X53.093 Y-47.069 E0.18365
G1 X53.211 Y-47.043 E0.02411
G1 X54.094 Y-46.812 E0.18214
G1 X54.273 Y-46.758 E0.03731
G1 X55.08 Y-46.483 E0.17014
G1 X55.273 Y-46.409 E0.04125
G1 X56.062 Y-46.075 E0.17098
G1 X56.228 Y-45.997 E0.0366
G1 X57.036 Y-45.581 E0.18136
G1 X57.162 Y-45.51 E0.02886
G1 X57.926 Y-45.045 E0.17848
G1 X58.071 Y-44.948 E0.03481
G1 X58.795 Y-44.431 E0.17754
G1 X58.914 Y-44.34 E0.0299
G1 X59.616 Y-43.755 E0.18236
G1 X59.729 Y-43.654 E0.03025
G1 X60.379 Y-43.028 E0.18009
G1 X60.492 Y-42.91 E0.0326
G1 X61.08 Y-42.256 E0.17551
G1 X61.184 Y-42.13 E0.0326
G1 X61.743 Y-41.406 E0.18254
G1 X61.842 Y-41.267 E0.03406
G1 X62.33 Y-40.531 E0.17623
G1 X62.405 Y-40.408 E0.02875
G1 X62.849 Y-39.617 E0.18102
G1 X62.918 Y-39.485 E0.02972
G1 X63.315 Y-38.64 E0.18631
G1 X63.366 Y-38.519 E0.0262
G1 X63.695 Y-37.66 E0.18357
G1 X63.744 Y-37.517 E0.03017
G1 X64.003 Y-36.655 E0.17962
G1 X64.04 Y-36.517 E0.02851
G1 X64.241 Y-35.619 E0.18364
G1 X64.266 Y-35.483 E0.0276
G1 X64.401 Y-34.569 E0.18438
G1 X64.416 Y-34.43 E0.0279
G1 X64.485 Y-33.518 E0.18252
G1 X64.499 Y-32.934 E0.11658
G1 X64.5 Y10.976 E8.76272
G1 X64.464 Y11.978 E0.20009
G1 X64.453 Y12.128 E0.03001
G1 X64.355 Y13.011 E0.17729
G1 X64.331 Y13.179 E0.03387
G1 X64.163 Y14.087 E0.18428
G1 X64.138 Y14.2 E0.0231
G1 X63.908 Y15.081 E0.18171
G1 X63.852 Y15.267 E0.03876
G1 X63.577 Y16.074 E0.17014
G1 X63.503 Y16.267 E0.04125
G1 X63.171 Y17.051 E0.16991
G1 X63.092 Y17.221 E0.03741
G1 X62.846 Y17.696 E0.10675
G1 X62.574 Y18.319 E0.13566
G1 X62.38 Y18.978 E0.13709
G1 X62.29 Y19.453 E0.09648
G1 X62.201 Y20.128 E0.13587
G1 X62.199 Y20.824 E0.13889
G1 X62.284 Y21.516 E0.13913
G1 X62.467 Y22.222 E0.14555
G1 X62.585 Y22.58 E0.07522
G1 X62.855 Y23.498 E0.19096
G1 X62.9 Y23.673 E0.03606
G1 X63.08 Y24.51 E0.17085
G1 X63.119 Y24.723 E0.04321
G1 X63.242 Y25.596 E0.17594
G1 X63.256 Y25.734 E0.02768
G1 X63.317 Y26.651 E0.1834
G1 X63.322 Y27.206 E0.11076
G1 X63.301 Y27.248 E0.00937
G1 X63.456 Y28.778 E0.30689
G1 X63.468 Y28.942 E0.03282
G1 X63.494 Y29.836 E0.17848
G1 X63.493 Y30.027 E0.03812
G1 X63.448 Y31.002 E0.19478
G1 X63.326 Y32.52 E0.30391
G1 X63.216 Y33.456 E0.18807
G1 X63.186 Y33.656 E0.04036
G1 X63.016 Y34.54 E0.17964
G1 X62.989 Y34.657 E0.02396
G1 X62.755 Y35.531 E0.18056
G1 X62.708 Y35.685 E0.03213
G1 X62.404 Y36.556 E0.1841
G1 X62.361 Y36.669 E0.02413
G1 X61.991 Y37.522 E0.18555
G1 X61.924 Y37.663 E0.03115
G1 X61.513 Y38.45 E0.17718
G1 X61.434 Y38.59 E0.03208
G1 X60.953 Y39.366 E0.1822
G1 X60.862 Y39.501 E0.03249
G1 X60.361 Y40.193 E0.17049
G1 X60.223 Y40.366 E0.04416
G1 X59.267 Y41.459 E0.28978
G1 X57.892 Y42.869 E0.39302
G1 X57.802 Y42.957 E0.02512
G1 X57.153 Y43.575 E0.17884
G1 X56.999 Y43.713 E0.04127
G1 X56.341 Y44.253 E0.16987
G1 X56.179 Y44.377 E0.04071
G1 X55.47 Y44.877 E0.17313
G1 X55.314 Y44.979 E0.0372
G1 X54.557 Y45.435 E0.17636
G1 X54.419 Y45.511 E0.03144
G1 X53.625 Y45.914 E0.17769
G1 X53.458 Y45.991 E0.0367
G1 X52.63 Y46.336 E0.17901
G1 X52.5 Y46.385 E0.02772
G1 X51.598 Y46.687 E0.18983
G1 X51.514 Y46.712 E0.01749
G1 X50.937 Y46.868 E0.11928
G1 X49.436 Y47.24 E0.3086
G1 X49.294 Y47.273 E0.02909
G1 X48.412 Y47.457 E0.1798
G1 X48.214 Y47.491 E0.04009
G1 X47.462 Y47.598 E0.15158
G1 X46.437 Y47.715 E0.20588
G1 X45.411 Y47.795 E0.20537
G1 X45.22 Y47.803 E0.03815
G1 X44.341 Y47.807 E0.17542
G1 X44.183 Y47.801 E0.03155
G1 X43.283 Y47.739 E0.18003
G1 X43.127 Y47.723 E0.03129
G1 X42.211 Y47.592 E0.18466
G1 X42.089 Y47.57 E0.02474
G1 X41.194 Y47.373 E0.18288
G1 X41.037 Y47.333 E0.03233
G1 X40.155 Y47.071 E0.18361
G1 X38.924 Y46.657 E0.25918
G1 X38.203 Y46.469 E0.14869
G1 X37.772 Y46.389 E0.08748
G1 X37.169 Y46.268 E0.12273
G1 X37.146 Y46.292 E0.00663
G1 X36.611 Y46.269 E0.10686
G1 X36.04 Y46.267 E0.11395
G1 X35.638 Y46.241 E0.08039
G1 X34.958 Y46.241 E0.1357
G1 X34.267 Y46.328 E0.13899
G1 X33.569 Y46.51 E0.14395
G1 X33.117 Y46.66 E0.09504
G1 X31.779 Y47.043 E0.27774
G1 X30.679 Y47.313 E0.22603
G1 X29.408 Y47.575 E0.25897
G1 X28.418 Y47.742 E0.20036
G1 X28.232 Y47.766 E0.03743
G1 X27.356 Y47.848 E0.17558
G1 X27.184 Y47.858 E0.03438
G1 X26.28 Y47.876 E0.18044
G1 X26.129 Y47.874 E0.03014
G1 X25.232 Y47.826 E0.17926
G1 X25.082 Y47.812 E0.03006
G1 X24.159 Y47.696 E0.18564
G1 X24.04 Y47.678 E0.02402
G1 X23.47 Y47.571 E0.11574
G1 X22.27 Y47.316 E0.24482
G1 X21.899 Y47.252 E0.07513
G1 X21.149 Y47.148 E0.1511
G1 X20.559 Y47.057 E0.11913
G1 X18.632 Y46.721 E0.39036
G1 X17.743 Y46.534 E0.18129
G1 X17.491 Y46.471 E0.05184
G1 X16.843 Y46.303 E0.13359
G1 X16.843 Y46.328 E0.00499
G1 X16.182 Y46.266 E0.13249
G1 X15.482 Y46.287 E0.13976
G1 X14.608 Y46.445 E0.17724
G1 X13.591 Y46.716 E0.21004
G1 X11.961 Y47.09 E0.33374
G1 X11.182 Y47.25 E0.1587
G1 X9.976 Y47.466 E0.2445
G1 X8.982 Y47.608 E0.20038
G1 X8.815 Y47.627 E0.03354
G1 X8.044 Y47.686 E0.15431
G1 X6.558 Y47.754 E0.29686
G1 X5.967 Y47.769 E0.11798
G1 X3.929 Y47.788 E0.40672
G1 X2.457 Y47.729 E0.29399
G1 X2.372 Y47.724 E0.01699
G1 X1.085 Y47.606 E0.25791
G1 X0.958 Y47.592 E0.0255
G1 X-.366 Y47.407 E0.26679
G1 X-.768 Y47.332 E0.08161
G1 X-1.536 Y47.245 E0.15424
G1 X-2.066 Y47.224 E0.10585
G1 X-2.212 Y47.215 E0.02919
G1 X-3.204 Y47.139 E0.19854
G1 X-3.308 Y47.129 E0.02085
G1 X-5.389 Y46.89 E0.41802
G1 X-6.317 Y46.749 E0.18732
G1 X-6.522 Y46.71 E0.04164
G1 X-7.376 Y46.515 E0.17481
G1 X-7.501 Y46.482 E0.0258
G1 X-8.324 Y46.235 E0.17148
G1 X-9.751 Y45.758 E0.30026
G1 X-9.863 Y45.718 E0.02373
G1 X-10.484 Y45.486 E0.13229
G1 X-11.134 Y45.288 E0.1356
M566 X1800 Y1800
G0 F7200 X-12 Y45.164
M566 X1200 Y1200
G1 F2250 X-12 Y-47.406 E18.47334
M566 X1800 Y1800
G0 F7200 X-14 Y-47.406
M566 X1200 Y1200
G1 F2250 X-14 Y45.134 E18.46736
M566 X1800 Y1800
G0 F7200 X-16 Y44.948
M566 X1200 Y1200
G1 F2250 X-16 Y-47.406 E18.43024
M566 X1800 Y1800
G0 F7200 X-18 Y-47.406
M566 X1200 Y1200
G1 F2250 X-18 Y44.842 E18.40909
M566 X1800 Y1800
G0 F7200 X-20 Y45.112
M566 X1200 Y1200
G1 F2250 X-20 Y-47.406 E18.46297
M566 X1800 Y1800
G0 F7200 X-22 Y-47.406
M566 X1200 Y1200
G1 F2250 X-22 Y45.824 E18.60505
M566 X1800 Y1800
G0 F7200 X-24 Y46.833
M566 X1200 Y1200
G1 F2250 X-24 Y-47.406 E18.80641
M566 X1800 Y1800
G0 F7200 X-26 Y-47.406
M566 X1200 Y1200
G1 F2250 X-26 Y47.494 E18.93832
M566 X1800 Y1800
G0 F7200 X-28 Y47.85
M566 X1200 Y1200
G1 F2250 X-28 Y-47.406 E19.00936
M566 X1800 Y1800
G0 F7200 X-30 Y-47.406
M566 X1200 Y1200
G1 F2250 X-30 Y47.916 E19.02254
M566 X1800 Y1800
G0 F7200 X-32 Y47.837
M566 X1200 Y1200
G1 F2250 X-32 Y-47.406 E19.00677
M566 X1800 Y1800
G0 F7200 X-34 Y-47.406
M566 X1200 Y1200
G1 F2250 X-34 Y47.818 E19.00298
M566 X1800 Y1800
G0 F7200 X-36 Y47.758
M566 X1200 Y1200
G1 F2250 X-36 Y-47.406 E18.991
M566 X1800 Y1800
G0 F7200 X-38 Y-47.406
M566 X1200 Y1200
G1 F2250 X-38 Y47.571 E18.95369
M566 X1800 Y1800
G0 F7200 X-40 Y47.288
M566 X1200 Y1200
G1 F2250 X-40 Y-47.406 E18.89721
M566 X1800 Y1800
G0 F7200 X-42 Y-47.406
M566 X1200 Y1200
G1 F2250 X-42 Y46.803 E18.80042
M566 X1800 Y1800
G0 F7200 X-44 Y46.519
M566 X1200 Y1200
G1 F2250 X-44 Y-47.406 E18.74375
M566 X1800 Y1800
G0 F7200 X-46 Y-47.406
M566 X1200 Y1200
G1 F2250 X-46 Y46.573 E18.75453
M566 X1800 Y1800
G0 F7200 X-48 Y46.386
M566 X1200 Y1200
G1 F2250 X-48 Y-47.406 E18.71721
M566 X1800 Y1800
G0 F7200 X-50 Y-47.406
M566 X1200 Y1200
G1 F2250 X-50 Y45.958 E18.6318
M566 X1800 Y1800
G0 F7200 X-52 Y45.418
M566 X1200 Y1200
G1 F2250 X-52 Y-47.258 E18.4945
M566 X1800 Y1800
G0 F7200 X-54 Y-46.834
M566 X1200 Y1200
G1 F2250 X-54 Y44.58 E18.24265
M566 X1800 Y1800
G0 F7200 X-56 Y43.345
M566 X1200 Y1200
G1 F2250 X-56 Y-46.096 E17.84892
M566 X1800 Y1800
G0 F7200 X-58 Y-44.988
M566 X1200 Y1200
G1 F2250 X-58 Y41.627 E17.28496
M566 X1800 Y1800
G0 F7200 X-60 Y39.403
M566 X1200 Y1200
G1 F2250 X-60 Y-43.402 E16.52463
M566 X1800 Y1800
G0 F7200 X-62 Y-41.036
M566 X1200 Y1200
G1 F2250 X-62 Y35.621 E15.29773
M566 X1800 Y1800
G0 F7200 X-64 Y22.53
M566 X1200 Y1200
G1 F2250 X-64 Y17.298 E1.0441
M566 X1800 Y1800
G0 F7200 X-64 Y14.776
M566 X1200 Y1200
G1 F2250 X-64 Y-36.641 E10.26082
M566 X1800 Y1800
G0 F7200 X-10 Y-47.406
M566 X1200 Y1200
G1 F2250 X-10 Y45.666 E18.57352
M566 X1800 Y1800
G0 F7200 X-8 Y46.332
M566 X1200 Y1200
G1 F2250 X-8 Y-47.406 E18.70643
M566 X1800 Y1800
G0 F7200 X-6 Y-47.406
M566 X1200 Y1200
G1 F2250 X-6 Y46.797 E18.79923
M566 X1800 Y1800
G0 F7200 X-4 Y47.049
M566 X1200 Y1200
G1 F2250 X-4 Y-47.406 E18.84952
M566 X1800 Y1800
G0 F7200 X-2 Y-47.406
M566 X1200 Y1200
G1 F2250 X-2 Y47.226 E18.88484
M566 X1800 Y1800
G0 F7200 X0.00 Y47.458
M566 X1200 Y1200
G1 F2250 X0.00 Y-47.406 E18.93114
M566 X1800 Y1800
G0 F7200 X2 Y-47.406
M566 X1200 Y1200
G1 F2250 X2 Y47.689 E18.97724
M566 X1800 Y1800
G0 F7200 X4 Y47.788
M566 X1200 Y1200
G1 F2250 X4 Y-47.406 E18.99699
M566 X1800 Y1800
G0 F7200 X6 Y-47.406
M566 X1200 Y1200
G1 F2250 X6 Y47.769 E18.9932
M566 X1800 Y1800
G0 F7200 X8 Y47.689
M566 X1200 Y1200
G1 F2250 X8 Y-47.406 E18.97724
M566 X1800 Y1800
G0 F7200 X10 Y-47.406
M566 X1200 Y1200
G1 F2250 X10 Y47.462 E18.93193
M566 X1800 Y1800
G0 F7200 X12 Y47.082
M566 X1200 Y1200
G1 F2250 X12 Y-47.406 E18.8561
M566 X1800 Y1800
G0 F7200 X14 Y-47.406
M566 X1200 Y1200
G1 F2250 X14 Y46.608 E18.76151
M566 X1800 Y1800
G0 F7200 X16 Y46.272
M566 X1200 Y1200
G1 F2250 X16 Y-47.406 E18.69446
M566 X1800 Y1800
G0 F7200 X18 Y-47.406
M566 X1200 Y1200
G1 F2250 X18 Y46.588 E18.75752
M566 X1800 Y1800
G0 F7200 X20 Y46.959
M566 X1200 Y1200
G1 F2250 X20 Y-47.406 E18.83156
M566 X1800 Y1800
G0 F7200 X22 Y-47.406
M566 X1200 Y1200
G1 F2250 X22 Y47.269 E18.89342
M566 X1800 Y1800
G0 F7200 X24 Y47.67
M566 X1200 Y1200
G1 F2250 X24 Y-47.406 E18.97344
M566 X1800 Y1800
G0 F7200 X26 Y-47.406
M566 X1200 Y1200
G1 F2250 X26 Y47.867 E19.01276
M566 X1800 Y1800
G0 F7200 X28 Y47.788
M566 X1200 Y1200
G1 F2250 X28 Y-47.406 E18.99699
M566 X1800 Y1800
G0 F7200 X30 Y-47.406
M566 X1200 Y1200
G1 F2250 X30 Y47.453 E18.93014
M566 X1800 Y1800
G0 F7200 X32 Y46.98
M566 X1200 Y1200
G1 F2250 X32 Y-47.406 E18.83575
M566 X1800 Y1800
G0 F7200 X34 Y-47.406
M566 X1200 Y1200
G1 F2250 X34 Y46.398 E18.7196
M566 X1800 Y1800
G0 F7200 X36 Y46.264
M566 X1200 Y1200
G1 F2250 X36 Y-47.406 E18.69286
M566 X1800 Y1800
G0 F7200 X38 Y-47.406
M566 X1200 Y1200
G1 F2250 X38 Y46.431 E18.72619
M566 X1800 Y1800
G0 F7200 X40 Y47.018
M566 X1200 Y1200
G1 F2250 X40 Y-47.406 E18.84333
M566 X1800 Y1800
