;FLAVOR:RepRap
;TIME:1020
;Filament used: 3.54303m
;Layer height: 0.3
;MINX:-59.75
;MINY:-10.75
;MINZ:0.4
;MAXX:59.75
;MAXY:10.75
;MAXZ:40
;POSTPROCESSED
;Generated with Cura_SteamEngine 4.13.1
T0
M190 S60
M104 S220
M109 S220
M82 ;absolute extrusion mode
G28 ;Home
G1 Z15.0 F6000 ;Move the platform down 15mm
;Prime the extruder
G92 E0
G1 F200 E3
G92 E0
M83 ;relative extrusion mode
G1 F1500 E-6.5
;LAYER_COUNT:133
;LAYER:0
M107 P1
M204 T5000
M566 X1800 Y1800
G0 F3600 X50 Y10.75 Z0.4
M204 P3000
M566 X1200 Y1200
;TYPE:SKIRT
G1 F1500 E6.5
G1 F3000 X-50 Y10.75 E8.31503
G1 X-50.882 Y10.71 E0.07341
G1 X-51.757 Y10.59 E0.07344
G1 X-52.617 Y10.392 E0.07338
G1 X-53.456 Y10.117 E0.07342
G1 X-54.267 Y9.767 E0.07345
G1 X-55.042 Y9.345 E0.07338
G1 X-55.777 Y8.854 E0.0735
G1 X-56.464 Y8.3 E0.07338
G1 X-57.097 Y7.685 E0.07339
G1 X-57.673 Y7.016 E0.07341
G1 X-58.186 Y6.297 E0.07344
G1 X-58.631 Y5.534 E0.07345
G1 X-59.006 Y4.735 E0.07339
G1 X-59.307 Y3.905 E0.07341
G1 X-59.532 Y3.051 E0.07343
G1 X-59.678 Y2.18 E0.07343
G1 X-59.75 Y1 E0.0983
G1 X-59.75 Y-1 E0.1663
G1 X-59.71 Y-1.882 E0.07341
G1 X-59.59 Y-2.757 E0.07344
G1 X-59.392 Y-3.617 E0.07338
G1 X-59.117 Y-4.456 E0.07342
G1 X-58.767 Y-5.267 E0.07345
G1 X-58.345 Y-6.042 E0.07338
G1 X-57.854 Y-6.777 E0.0735
G1 X-57.3 Y-7.464 E0.07338
G1 X-56.685 Y-8.097 E0.07339
G1 X-56.016 Y-8.673 E0.07341
G1 X-55.297 Y-9.186 E0.07344
G1 X-54.534 Y-9.631 E0.07345
G1 X-53.735 Y-10.006 E0.07339
G1 X-52.905 Y-10.307 E0.07341
G1 X-52.051 Y-10.532 E0.07343
G1 X-51.18 Y-10.678 E0.07343
G1 X-50 Y-10.75 E0.0983
G1 X50 Y-10.75 E8.31503
G1 X50.882 Y-10.71 E0.07341
G1 X51.757 Y-10.59 E0.07344
G1 X52.617 Y-10.392 E0.07338
G1 X53.456 Y-10.117 E0.07342
G1 X54.267 Y-9.767 E0.07345
G1 X55.042 Y-9.345 E0.07338
G1 X55.777 Y-8.854 E0.0735
G1 X56.464 Y-8.3 E0.07338
G1 X57.097 Y-7.685 E0.07339
G1 X57.673 Y-7.016 E0.07341
G1 X58.186 Y-6.297 E0.07344
G1 X58.631 Y-5.534 E0.07345
G1 X59.006 Y-4.735 E0.07339
G1 X59.307 Y-3.905 E0.07341
G1 X59.532 Y-3.051 E0.07343
G1 X59.678 Y-2.18 E0.07343
G1 X59.75 Y-1 E0.0983
G1 X59.75 Y1 E0.1663
G1 X59.71 Y1.882 E0.07341
G1 X59.59 Y2.757 E0.07344
G1 X59.392 Y3.617 E0.07338
G1 X59.117 Y4.456 E0.07342
G1 X58.767 Y5.267 E0.07345
G1 X58.345 Y6.042 E0.07338
G1 X57.854 Y6.777 E0.0735
G1 X57.3 Y7.464 E0.07338
G1 X56.685 Y8.097 E0.07339
G1 X56.016 Y8.673 E0.07341
G1 X55.297 Y9.186 E0.07344
G1 X54.534 Y9.631 E0.07345
G1 X53.735 Y10.006 E0.07339
G1 X52.905 Y10.307 E0.07341
G1 X52.051 Y10.532 E0.07343
G1 X51.18 Y10.678 E0.07343
G1 X50 Y10.75 E0.0983
M566 X1800 Y1800
G0 F3600 X50 Y10.25
M566 X1200 Y1200
G1 F3000 X-50 Y10.25 E8.31503
G1 X-50.859 Y10.21 E0.0715
G1 X-51.711 Y10.09 E0.07154
G1 X-52.548 Y9.892 E0.07152
G1 X-53.362 Y9.617 E0.07144
G1 X-54.148 Y9.268 E0.07151
G1 X-54.898 Y8.847 E0.07152
G1 X-55.606 Y8.358 E0.07155
G1 X-56.265 Y7.806 E0.07148
G1 X-56.87 Y7.194 E0.07156
G1 X-57.415 Y6.529 E0.07149
G1 X-57.897 Y5.817 E0.07149
G1 X-58.31 Y5.063 E0.07148
G1 X-58.651 Y4.273 E0.07155
G1 X-58.918 Y3.456 E0.07147
G1 X-59.108 Y2.617 E0.07153
G1 X-59.218 Y1.764 E0.07151
G1 X-59.25 Y1 E0.06358
G1 X-59.25 Y-1 E0.1663
G1 X-59.21 Y-1.859 E0.0715
G1 X-59.09 Y-2.711 E0.07154
G1 X-58.892 Y-3.548 E0.07152
G1 X-58.617 Y-4.362 E0.07144
G1 X-58.268 Y-5.148 E0.07151
G1 X-57.847 Y-5.898 E0.07152
G1 X-57.358 Y-6.606 E0.07155
G1 X-56.806 Y-7.265 E0.07148
G1 X-56.194 Y-7.87 E0.07156
G1 X-55.529 Y-8.415 E0.07149
G1 X-54.817 Y-8.897 E0.07149
G1 X-54.063 Y-9.31 E0.07148
G1 X-53.273 Y-9.651 E0.07155
G1 X-52.456 Y-9.918 E0.07147
G1 X-51.617 Y-10.108 E0.07153
G1 X-50.764 Y-10.218 E0.07151
G1 X-50 Y-10.25 E0.06358
G1 X50 Y-10.25 E8.31503
G1 X50.859 Y-10.21 E0.0715
G1 X51.711 Y-10.09 E0.07154
G1 X52.548 Y-9.892 E0.07152
G1 X53.362 Y-9.617 E0.07144
G1 X54.148 Y-9.268 E0.07151
G1 X54.898 Y-8.847 E0.07152
G1 X55.606 Y-8.358 E0.07155
G1 X56.265 Y-7.806 E0.07148
G1 X56.87 Y-7.194 E0.07156
G1 X57.415 Y-6.529 E0.07149
G1 X57.897 Y-5.817 E0.07149
G1 X58.31 Y-5.063 E0.07148
G1 X58.651 Y-4.273 E0.07155
G1 X58.918 Y-3.456 E0.07147
G1 X59.108 Y-2.617 E0.07153
G1 X59.218 Y-1.764 E0.07151
G1 X59.25 Y-1 E0.06358
G1 X59.25 Y1 E0.1663
G1 X59.21 Y1.859 E0.0715
G1 X59.09 Y2.711 E0.07154
G1 X58.892 Y3.548 E0.07152
G1 X58.617 Y4.362 E0.07144
G1 X58.268 Y5.148 E0.07151
G1 X57.847 Y5.898 E0.07152
G1 X57.358 Y6.606 E0.07155
G1 X56.806 Y7.265 E0.07148
G1 X56.194 Y7.87 E0.07156
G1 X55.529 Y8.415 E0.07149
G1 X54.817 Y8.897 E0.07149
G1 X54.063 Y9.31 E0.07148
G1 X53.273 Y9.651 E0.07155
G1 X52.456 Y9.918 E0.07147
G1 X51.617 Y10.108 E0.07153
G1 X50.764 Y10.218 E0.07151
G1 X50 Y10.25 E0.06358
M566 X1800 Y1800
G0 F3600 X50 Y9.75
M566 X1200 Y1200
G1 F3000 X-50 Y9.75 E8.31503
G1 X-50.835 Y9.71 E0.06951
G1 X-51.663 Y9.59 E0.06957
G1 X-52.476 Y9.392 E0.06958
G1 X-53.266 Y9.118 E0.06953
G1 X-54.026 Y8.769 E0.06954
G1 X-54.749 Y8.349 E0.06953
G1 X-55.429 Y7.862 E0.06955
G1 X-56.06 Y7.312 E0.0696
G1 X-56.635 Y6.705 E0.06952
G1 X-57.149 Y6.045 E0.06956
G1 X-57.598 Y5.339 E0.06957
G1 X-57.978 Y4.594 E0.06954
G1 X-58.285 Y3.816 E0.06955
G1 X-58.516 Y3.012 E0.06956
G1 X-58.669 Y2.19 E0.06952
G1 X-58.75 Y1 E0.09918
G1 X-58.75 Y-1 E0.1663
G1 X-58.71 Y-1.835 E0.06951
G1 X-58.59 Y-2.663 E0.06957
G1 X-58.392 Y-3.476 E0.06958
G1 X-58.118 Y-4.266 E0.06953
G1 X-57.769 Y-5.026 E0.06954
G1 X-57.349 Y-5.749 E0.06953
G1 X-56.862 Y-6.429 E0.06955
G1 X-56.312 Y-7.06 E0.0696
G1 X-55.705 Y-7.635 E0.06952
G1 X-55.045 Y-8.149 E0.06956
G1 X-54.339 Y-8.598 E0.06957
G1 X-53.594 Y-8.978 E0.06954
G1 X-52.816 Y-9.285 E0.06955
G1 X-52.012 Y-9.516 E0.06956
G1 X-51.19 Y-9.669 E0.06952
G1 X-50 Y-9.75 E0.09918
G1 X50 Y-9.75 E8.31503
G1 X50.835 Y-9.71 E0.06951
G1 X51.663 Y-9.59 E0.06957
G1 X52.476 Y-9.392 E0.06958
G1 X53.266 Y-9.118 E0.06953
G1 X54.026 Y-8.769 E0.06954
G1 X54.749 Y-8.349 E0.06953
G1 X55.429 Y-7.862 E0.06955
G1 X56.06 Y-7.312 E0.0696
G1 X56.635 Y-6.705 E0.06952
G1 X57.149 Y-6.045 E0.06956
G1 X57.598 Y-5.339 E0.06957
G1 X57.978 Y-4.594 E0.06954
G1 X58.285 Y-3.816 E0.06955
G1 X58.516 Y-3.012 E0.06956
G1 X58.669 Y-2.19 E0.06952
G1 X58.75 Y-1 E0.09918
G1 X58.75 Y1 E0.1663
G1 X58.71 Y1.835 E0.06951
G1 X58.59 Y2.663 E0.06957
G1 X58.392 Y3.476 E0.06958
G1 X58.118 Y4.266 E0.06953
G1 X57.769 Y5.026 E0.06954
G1 X57.349 Y5.749 E0.06953
G1 X56.862 Y6.429 E0.06955
G1 X56.312 Y7.06 E0.0696
G1 X55.705 Y7.635 E0.06952
G1 X55.045 Y8.149 E0.06956
G1 X54.339 Y8.598 E0.06957
G1 X53.594 Y8.978 E0.06954
G1 X52.816 Y9.285 E0.06955
G1 X52.012 Y9.516 E0.06956
G1 X51.19 Y9.669 E0.06952
G1 X50 Y9.75 E0.09918
M566 X1800 Y1800
G0 F3600 X50 Y9.25
M566 X1200 Y1200
G1 F3000 X-50 Y9.25 E8.31503
G1 X-50.811 Y9.21 E0.06752
G1 X-51.614 Y9.09 E0.06751
G1 X-52.402 Y8.893 E0.06754
G1 X-53.167 Y8.618 E0.0676
G1 X-53.9 Y8.27 E0.06747
G1 X-54.596 Y7.851 E0.06755
G1 X-55.247 Y7.366 E0.0675
G1 X-55.848 Y6.819 E0.06757
G1 X-56.392 Y6.216 E0.06753
G1 X-56.874 Y5.562 E0.06755
G1 X-57.289 Y4.864 E0.06752
G1 X-57.634 Y4.129 E0.06751
G1 X-57.904 Y3.363 E0.06753
G1 X-58.098 Y2.575 E0.06748
G1 X-58.214 Y1.771 E0.06755
G1 X-58.25 Y1 E0.06418
G1 X-58.25 Y-1 E0.1663
G1 X-58.21 Y-1.811 E0.06752
G1 X-58.09 Y-2.614 E0.06751
G1 X-57.893 Y-3.402 E0.06754
G1 X-57.618 Y-4.167 E0.0676
G1 X-57.27 Y-4.9 E0.06747
G1 X-56.851 Y-5.596 E0.06755
G1 X-56.366 Y-6.247 E0.0675
G1 X-55.819 Y-6.848 E0.06757
G1 X-55.216 Y-7.392 E0.06753
G1 X-54.562 Y-7.874 E0.06755
G1 X-53.864 Y-8.289 E0.06752
G1 X-53.129 Y-8.634 E0.06751
G1 X-52.363 Y-8.904 E0.06753
G1 X-51.575 Y-9.098 E0.06748
G1 X-50.771 Y-9.214 E0.06755
G1 X-50 Y-9.25 E0.06418
G1 X50 Y-9.25 E8.31503
G1 X50.811 Y-9.21 E0.06752
G1 X51.614 Y-9.09 E0.06751
G1 X52.402 Y-8.893 E0.06754
G1 X53.167 Y-8.618 E0.0676
G1 X53.9 Y-8.27 E0.06747
G1 X54.596 Y-7.851 E0.06755
G1 X55.247 Y-7.366 E0.0675
G1 X55.848 Y-6.819 E0.06757
G1 X56.392 Y-6.216 E0.06753
G1 X56.874 Y-5.562 E0.06755
G1 X57.289 Y-4.864 E0.06752
G1 X57.634 Y-4.129 E0.06751
G1 X57.904 Y-3.363 E0.06753
G1 X58.098 Y-2.575 E0.06748
G1 X58.214 Y-1.771 E0.06755
G1 X58.25 Y-1 E0.06418
G1 X58.25 Y1 E0.1663
G1 X58.21 Y1.811 E0.06752
G1 X58.09 Y2.614 E0.06751
G1 X57.893 Y3.402 E0.06754
G1 X57.618 Y4.167 E0.0676
G1 X57.27 Y4.9 E0.06747
G1 X56.851 Y5.596 E0.06755
G1 X56.366 Y6.247 E0.0675
G1 X55.819 Y6.848 E0.06757
G1 X55.216 Y7.392 E0.06753
G1 X54.562 Y7.874 E0.06755
G1 X53.864 Y8.289 E0.06752
G1 X53.129 Y8.634 E0.06751
G1 X52.363 Y8.904 E0.06753
G1 X51.575 Y9.098 E0.06748
G1 X50.771 Y9.214 E0.06755
G1 X50 Y9.25 E0.06418
M566 X1800 Y1800
G0 F3600 X50 Y8.75
M566 X1200 Y1200
G1 F3000 X-50 Y8.75 E8.31503
G1 X-50.786 Y8.71 E0.06544
G1 X-51.564 Y8.591 E0.06544
G1 X-52.326 Y8.393 E0.06546
G1 X-53.064 Y8.119 E0.06546
G1 X-53.77 Y7.771 E0.06545
G1 X-54.438 Y7.354 E0.06548
G1 X-55.059 Y6.871 E0.06542
G1 X-55.629 Y6.327 E0.06552
G1 X-56.14 Y5.729 E0.06541
G1 X-56.588 Y5.082 E0.06544
G1 X-56.968 Y4.392 E0.0655
G1 X-57.276 Y3.668 E0.06542
G1 X-57.509 Y2.916 E0.06546
G1 X-57.665 Y2.145 E0.06541
G1 X-57.75 Y1 E0.09547
G1 X-57.75 Y-1 E0.1663
G1 X-57.71 Y-1.786 E0.06544
G1 X-57.591 Y-2.564 E0.06544
G1 X-57.393 Y-3.326 E0.06546
G1 X-57.119 Y-4.064 E0.06546
G1 X-56.771 Y-4.77 E0.06545
G1 X-56.354 Y-5.438 E0.06548
G1 X-55.871 Y-6.059 E0.06542
G1 X-55.327 Y-6.629 E0.06552
G1 X-54.729 Y-7.14 E0.06541
G1 X-54.082 Y-7.588 E0.06544
G1 X-53.392 Y-7.968 E0.0655
G1 X-52.668 Y-8.276 E0.06542
G1 X-51.916 Y-8.509 E0.06546
G1 X-51.145 Y-8.665 E0.06541
G1 X-50 Y-8.75 E0.09547
G1 X50 Y-8.75 E8.31503
G1 X50.786 Y-8.71 E0.06544
G1 X51.564 Y-8.591 E0.06544
G1 X52.326 Y-8.393 E0.06546
G1 X53.064 Y-8.119 E0.06546
G1 X53.77 Y-7.771 E0.06545
G1 X54.438 Y-7.354 E0.06548
G1 X55.059 Y-6.871 E0.06542
G1 X55.629 Y-6.327 E0.06552
G1 X56.14 Y-5.729 E0.06541
G1 X56.588 Y-5.082 E0.06544
G1 X56.968 Y-4.392 E0.0655
G1 X57.276 Y-3.668 E0.06542
G1 X57.509 Y-2.916 E0.06546
G1 X57.665 Y-2.145 E0.06541
G1 X57.75 Y-1 E0.09547
G1 X57.75 Y1 E0.1663
G1 X57.71 Y1.786 E0.06544
G1 X57.591 Y2.564 E0.06544
G1 X57.393 Y3.326 E0.06546
G1 X57.119 Y4.064 E0.06546
G1 X56.771 Y4.77 E0.06545
G1 X56.354 Y5.438 E0.06548
G1 X55.871 Y6.059 E0.06542
G1 X55.327 Y6.629 E0.06552
G1 X54.729 Y7.14 E0.06541
G1 X54.082 Y7.588 E0.06544
G1 X53.392 Y7.968 E0.0655
G1 X52.668 Y8.276 E0.06542
G1 X51.916 Y8.509 E0.06546
G1 X51.145 Y8.665 E0.06541
G1 X50 Y8.75 E0.09547
M566 X1800 Y1800
G0 F3600 X50 Y8.25
M566 X1200 Y1200
G1 F3000 X-50 Y8.25 E8.31503
G1 X-50.76 Y8.21 E0.06328
G1 X-51.512 Y8.091 E0.06331
G1 X-52.247 Y7.893 E0.06329
G1 X-52.958 Y7.619 E0.06336
G1 X-53.636 Y7.273 E0.06329
G1 X-54.273 Y6.857 E0.06326
G1 X-54.864 Y6.376 E0.06336
G1 X-55.401 Y5.837 E0.06326
G1 X-55.878 Y5.244 E0.06328
G1 X-56.291 Y4.604 E0.06333
G1 X-56.634 Y3.924 E0.06333
G1 X-56.904 Y3.212 E0.06332
G1 X-57.098 Y2.476 E0.06329
G1 X-57.214 Y1.724 E0.06327
G1 X-57.25 Y1 E0.06028
G1 X-57.25 Y-1 E0.1663
G1 X-57.21 Y-1.76 E0.06328
G1 X-57.091 Y-2.512 E0.06331
G1 X-56.893 Y-3.247 E0.06329
G1 X-56.619 Y-3.958 E0.06336
G1 X-56.273 Y-4.636 E0.06329
G1 X-55.857 Y-5.273 E0.06326
G1 X-55.376 Y-5.864 E0.06336
G1 X-54.837 Y-6.401 E0.06326
G1 X-54.244 Y-6.878 E0.06328
G1 X-53.604 Y-7.291 E0.06333
G1 X-52.924 Y-7.634 E0.06333
G1 X-52.212 Y-7.904 E0.06332
G1 X-51.476 Y-8.098 E0.06329
G1 X-50.724 Y-8.214 E0.06327
G1 X-50 Y-8.25 E0.06028
G1 X50 Y-8.25 E8.31503
G1 X50.76 Y-8.21 E0.06328
G1 X51.512 Y-8.091 E0.06331
G1 X52.247 Y-7.893 E0.06329
G1 X52.958 Y-7.619 E0.06336
G1 X53.636 Y-7.273 E0.06329
G1 X54.273 Y-6.857 E0.06326
G1 X54.864 Y-6.376 E0.06336
G1 X55.401 Y-5.837 E0.06326
G1 X55.878 Y-5.244 E0.06328
G1 X56.291 Y-4.604 E0.06333
G1 X56.634 Y-3.924 E0.06333
G1 X56.904 Y-3.212 E0.06332
G1 X57.098 Y-2.476 E0.06329
G1 X57.214 Y-1.724 E0.06327
G1 X57.25 Y-1 E0.06028
G1 X57.25 Y1 E0.1663
G1 X57.21 Y1.76 E0.06328
G1 X57.091 Y2.512 E0.06331
G1 X56.893 Y3.247 E0.06329
G1 X56.619 Y3.958 E0.06336
G1 X56.273 Y4.636 E0.06329
G1 X55.857 Y5.273 E0.06326
G1 X55.376 Y5.864 E0.06336
G1 X54.837 Y6.401 E0.06326
G1 X54.244 Y6.878 E0.06328
G1 X53.604 Y7.291 E0.06333
G1 X52.924 Y7.634 E0.06333
G1 X52.212 Y7.904 E0.06332
G1 X51.476 Y8.098 E0.06329
G1 X50.724 Y8.214 E0.06327
G1 X50 Y8.25 E0.06028
M566 X1800 Y1800
G0 F3600 X50 Y7.75
M566 X1200 Y1200
G1 F3000 X-50 Y7.75 E8.31503
G1 X-50.733 Y7.71 E0.06104
G1 X-51.458 Y7.591 E0.06109
G1 X-52.166 Y7.393 E0.06113
G1 X-52.848 Y7.12 E0.06108
G1 X-53.496 Y6.774 E0.06108
G1 X-54.103 Y6.36 E0.06109
G1 X-54.661 Y5.883 E0.06104
G1 X-55.164 Y5.347 E0.06112
G1 X-55.606 Y4.76 E0.0611
G1 X-55.981 Y4.129 E0.06103
G1 X-56.286 Y3.461 E0.06106
G1 X-56.516 Y2.763 E0.06111
G1 X-56.669 Y2.044 E0.06112
G1 X-56.75 Y1 E0.08707
G1 X-56.75 Y-1 E0.1663
G1 X-56.71 Y-1.733 E0.06104
G1 X-56.591 Y-2.458 E0.06109
G1 X-56.393 Y-3.166 E0.06113
G1 X-56.12 Y-3.848 E0.06108
G1 X-55.774 Y-4.496 E0.06108
G1 X-55.36 Y-5.103 E0.06109
G1 X-54.883 Y-5.661 E0.06104
G1 X-54.347 Y-6.164 E0.06112
G1 X-53.76 Y-6.606 E0.0611
G1 X-53.129 Y-6.981 E0.06103
G1 X-52.461 Y-7.286 E0.06106
G1 X-51.763 Y-7.516 E0.06111
G1 X-51.044 Y-7.669 E0.06112
G1 X-50 Y-7.75 E0.08707
G1 X50 Y-7.75 E8.31503
G1 X50.733 Y-7.71 E0.06104
G1 X51.458 Y-7.591 E0.06109
G1 X52.166 Y-7.393 E0.06113
G1 X52.848 Y-7.12 E0.06108
G1 X53.496 Y-6.774 E0.06108
G1 X54.103 Y-6.36 E0.06109
G1 X54.661 Y-5.883 E0.06104
G1 X55.164 Y-5.347 E0.06112
G1 X55.606 Y-4.76 E0.0611
G1 X55.981 Y-4.129 E0.06103
G1 X56.286 Y-3.461 E0.06106
G1 X56.516 Y-2.763 E0.06111
G1 X56.669 Y-2.044 E0.06112
G1 X56.75 Y-1 E0.08707
G1 X56.75 Y1 E0.1663
G1 X56.71 Y1.733 E0.06104
G1 X56.591 Y2.458 E0.06109
G1 X56.393 Y3.166 E0.06113
G1 X56.12 Y3.848 E0.06108
G1 X55.774 Y4.496 E0.06108
G1 X55.36 Y5.103 E0.06109
G1 X54.883 Y5.661 E0.06104
G1 X54.347 Y6.164 E0.06112
G1 X53.76 Y6.606 E0.0611
G1 X53.129 Y6.981 E0.06103
G1 X52.461 Y7.286 E0.06106
G1 X51.763 Y7.516 E0.06111
G1 X51.044 Y7.669 E0.06112
G1 X50 Y7.75 E0.08707
M566 X1800 Y1800
G0 F3600 X50 Y7.25
M566 X1200 Y1200
G1 F3000 X-50 Y7.25 E8.31503
G1 X-50.706 Y7.21 E0.0588
G1 X-51.402 Y7.091 E0.05871
G1 X-52.081 Y6.893 E0.05881
G1 X-52.733 Y6.621 E0.05874
G1 X-53.35 Y6.276 E0.05878
G1 X-53.925 Y5.864 E0.05882
G1 X-54.449 Y5.39 E0.05875
G1 X-54.916 Y4.859 E0.0588
G1 X-55.32 Y4.28 E0.05871
G1 X-55.657 Y3.658 E0.05882
G1 X-55.921 Y3.002 E0.0588
G1 X-56.109 Y2.321 E0.05874
G1 X-56.219 Y1.623 E0.05876
G1 X-56.25 Y1 E0.05187
G1 X-56.25 Y-1 E0.1663
G1 X-56.21 Y-1.706 E0.0588
G1 X-56.091 Y-2.402 E0.05871
G1 X-55.893 Y-3.081 E0.05881
G1 X-55.621 Y-3.733 E0.05874
G1 X-55.276 Y-4.35 E0.05878
G1 X-54.864 Y-4.925 E0.05882
G1 X-54.39 Y-5.449 E0.05875
G1 X-53.859 Y-5.916 E0.0588
G1 X-53.28 Y-6.32 E0.05871
G1 X-52.658 Y-6.657 E0.05882
G1 X-52.002 Y-6.921 E0.0588
G1 X-51.321 Y-7.109 E0.05874
G1 X-50.623 Y-7.219 E0.05876
G1 X-50 Y-7.25 E0.05187
G1 X50 Y-7.25 E8.31503
G1 X50.706 Y-7.21 E0.0588
G1 X51.402 Y-7.091 E0.05871
G1 X52.081 Y-6.893 E0.05881
G1 X52.733 Y-6.621 E0.05874
G1 X53.35 Y-6.276 E0.05878
G1 X53.925 Y-5.864 E0.05882
G1 X54.449 Y-5.39 E0.05875
G1 X54.916 Y-4.859 E0.0588
G1 X55.32 Y-4.28 E0.05871
G1 X55.657 Y-3.658 E0.05882
G1 X55.921 Y-3.002 E0.0588
G1 X56.109 Y-2.321 E0.05874
G1 X56.219 Y-1.623 E0.05876
G1 X56.25 Y-1 E0.05187
G1 X56.25 Y1 E0.1663
G1 X56.21 Y1.706 E0.0588
G1 X56.091 Y2.402 E0.05871
G1 X55.893 Y3.081 E0.05881
G1 X55.621 Y3.733 E0.05874
G1 X55.276 Y4.35 E0.05878
G1 X54.864 Y4.925 E0.05882
G1 X54.39 Y5.449 E0.05875
G1 X53.859 Y5.916 E0.0588
G1 X53.28 Y6.32 E0.05871
G1 X52.658 Y6.657 E0.05882
G1 X52.002 Y6.921 E0.0588
G1 X51.321 Y7.109 E0.05874
G1 X50.623 Y7.219 E0.05876
G1 X50 Y7.25 E0.05187
M566 X1800 Y1800
G0 F3600 X50 Y6.75
M566 X1200 Y1200
G1 F3000 X-50 Y6.75 E8.31503
G1 X-50.677 Y6.71 E0.05639
G1 X-51.344 Y6.591 E0.05634
G1 X-51.993 Y6.394 E0.0564
G1 X-52.614 Y6.122 E0.05637
G1 X-53.198 Y5.778 E0.05636
G1 X-53.739 Y5.369 E0.05639
G1 X-54.227 Y4.898 E0.05639
G1 X-54.656 Y4.374 E0.05631
G1 X-55.021 Y3.802 E0.05642
G1 X-55.316 Y3.192 E0.05634
G1 X-55.537 Y2.551 E0.05638
G1 X-55.681 Y1.889 E0.05633
G1 X-55.75 Y1 E0.07414
G1 X-55.75 Y-1 E0.1663
G1 X-55.71 Y-1.677 E0.05639
G1 X-55.591 Y-2.344 E0.05634
G1 X-55.394 Y-2.993 E0.0564
G1 X-55.122 Y-3.614 E0.05637
G1 X-54.778 Y-4.198 E0.05636
G1 X-54.369 Y-4.739 E0.05639
G1 X-53.898 Y-5.227 E0.05639
G1 X-53.374 Y-5.656 E0.05631
G1 X-52.802 Y-6.021 E0.05642
