;FLAVOR:RepRap
;TIME:508
;Filament used: 1.43822m
;Layer height: 0.3
;MINX:-12.75
;MINY:-26.25
;MINZ:0.4
;MAXX:12.75
;MAXY:15.25
;MAXZ:13
;POSTPROCESSED
;Generated with Cura_SteamEngine 4.13.1
T0
M190 S60
M104 S220
M109 S220
M82 ;absolute extrusion mode
G28 ;Home
G1 Z15.0 F6000 ;Move the platform down 15mm
;Prime the extruder
G92 E0
G1 F200 E3
G92 E0
M83 ;relative extrusion mode
G1 F1500 E-6.5
;LAYER_COUNT:43
;LAYER:0
M107 P1
M204 T5000
M566 X1800 Y1800
G0 F3600 X12.75 Y10.317 Z0.4
M204 P3000
M566 X1200 Y1200
;TYPE:SKIRT
G1 F1500 E6.5
G1 F3000 X12.741 Y11.044 E0.06045
G1 X12.694 Y11.624 E0.04839
G1 X12.567 Y12.193 E0.04848
G1 X12.365 Y12.74 E0.04849
G1 X12.089 Y13.253 E0.04844
G1 X11.746 Y13.724 E0.04845
G1 X11.341 Y14.144 E0.04851
G1 X10.883 Y14.504 E0.04844
G1 X10.38 Y14.798 E0.04844
G1 X9.842 Y15.021 E0.04843
G1 X9.278 Y15.168 E0.04846
G1 X8.61 Y15.239 E0.05586
G1 X8.17 Y15.25 E0.0366
G1 X-7.848 Y15.25 E1.3319
G1 X-8.546 Y15.241 E0.05804
G1 X-9.127 Y15.193 E0.04847
G1 X-9.695 Y15.067 E0.04838
G1 X-10.242 Y14.864 E0.04851
G1 X-10.755 Y14.588 E0.04844
G1 X-11.226 Y14.244 E0.0485
G1 X-11.645 Y13.84 E0.0484
G1 X-12.005 Y13.381 E0.0485
G1 X-12.299 Y12.878 E0.04844
G1 X-12.521 Y12.339 E0.04847
G1 X-12.668 Y11.775 E0.04846
G1 X-12.739 Y11.106 E0.05594
G1 X-12.75 Y10.658 E0.03726
G1 X-12.75 Y-21.384 E2.6643
G1 X-12.741 Y-22.049 E0.0553
G1 X-12.693 Y-22.629 E0.04839
G1 X-12.566 Y-23.198 E0.04848
G1 X-12.363 Y-23.744 E0.04844
G1 X-12.086 Y-24.257 E0.04848
G1 X-11.743 Y-24.728 E0.04845
G1 X-11.338 Y-25.147 E0.04846
G1 X-10.879 Y-25.507 E0.0485
G1 X-10.376 Y-25.8 E0.0484
G1 X-9.837 Y-26.022 E0.04847
G1 X-9.273 Y-26.168 E0.04844
G1 X-8.61 Y-26.239 E0.05544
G1 X-8.17 Y-26.25 E0.0366
G1 X7.854 Y-26.25 E1.3324
G1 X8.552 Y-26.24 E0.05804
G1 X9.133 Y-26.191 E0.04848
G1 X9.701 Y-26.064 E0.0484
G1 X10.247 Y-25.86 E0.04847
G1 X10.76 Y-25.584 E0.04844
G1 X11.23 Y-25.239 E0.04848
G1 X11.649 Y-24.834 E0.04846
G1 X12.009 Y-24.375 E0.0485
G1 X12.302 Y-23.872 E0.0484
G1 X12.523 Y-23.333 E0.04844
G1 X12.669 Y-22.768 E0.04852
G1 X12.739 Y-22.109 E0.0551
G1 X12.75 Y-21.67 E0.03651
G1 X12.75 Y10.317 E2.65973
M566 X1800 Y1800
G0 F3600 X12.25 Y10.31
M566 X1200 Y1200
G1 F3000 X12.241 Y11.037 E0.06045
G1 X12.194 Y11.583 E0.04557
G1 X12.068 Y12.116 E0.04554
G1 X11.867 Y12.624 E0.04543
G1 X11.593 Y13.098 E0.04552
G1 X11.253 Y13.527 E0.04552
G1 X10.854 Y13.902 E0.04553
G1 X10.405 Y14.216 E0.04556
G1 X9.916 Y14.46 E0.04544
G1 X9.395 Y14.63 E0.04557
G1 X8.596 Y14.74 E0.06706
G1 X8.17 Y14.75 E0.03543
G1 X-7.841 Y14.75 E1.33132
G1 X-8.539 Y14.741 E0.05804
G1 X-9.085 Y14.694 E0.04557
G1 X-9.617 Y14.568 E0.04546
G1 X-10.126 Y14.366 E0.04553
G1 X-10.6 Y14.092 E0.04552
G1 X-11.029 Y13.752 E0.04552
G1 X-11.404 Y13.353 E0.04553
G1 X-11.717 Y12.904 E0.04551
G1 X-11.961 Y12.414 E0.04552
G1 X-12.131 Y11.894 E0.04549
G1 X-12.24 Y11.092 E0.0673
G1 X-12.25 Y10.658 E0.0361
G1 X-12.25 Y-21.377 E2.66372
G1 X-12.241 Y-22.042 E0.0553
G1 X-12.193 Y-22.587 E0.04549
G1 X-12.067 Y-23.12 E0.04554
G1 X-11.865 Y-23.628 E0.04546
G1 X-11.59 Y-24.102 E0.04557
G1 X-11.25 Y-24.531 E0.04552
G1 X-10.851 Y-24.905 E0.04547
G1 X-10.402 Y-25.218 E0.04551
G1 X-9.912 Y-25.462 E0.04552
G1 X-9.391 Y-25.631 E0.04554
G1 X-8.596 Y-25.74 E0.06672
G1 X-8.17 Y-25.75 E0.03543
G1 X7.847 Y-25.75 E1.33182
G1 X8.545 Y-25.74 E0.05804
G1 X9.09 Y-25.692 E0.04549
G1 X9.622 Y-25.565 E0.04548
G1 X10.131 Y-25.362 E0.04557
G1 X10.604 Y-25.088 E0.04545
G1 X11.033 Y-24.747 E0.04557
G1 X11.407 Y-24.348 E0.04547
G1 X11.719 Y-23.898 E0.04553
G1 X11.963 Y-23.408 E0.04552
G1 X12.132 Y-22.887 E0.04554
G1 X12.24 Y-22.095 E0.06646
G1 X12.25 Y-21.67 E0.03535
G1 X12.25 Y10.31 E2.65915
M566 X1800 Y1800
G0 F3600 X11.75 Y10.304
M566 X1200 Y1200
G1 F3000 X11.741 Y11.031 E0.06045
G1 X11.695 Y11.539 E0.04241
G1 X11.57 Y12.033 E0.04237
G1 X11.369 Y12.501 E0.04235
G1 X11.098 Y12.932 E0.04233
G1 X10.762 Y13.316 E0.04243
G1 X10.371 Y13.642 E0.04233
G1 X9.933 Y13.903 E0.0424
G1 X9.461 Y14.093 E0.04231
G1 X8.964 Y14.206 E0.04238
G1 X8.261 Y14.249 E0.05856
G1 X-7.835 Y14.25 E1.33839
G1 X-8.533 Y14.241 E0.05804
G1 X-9.04 Y14.194 E0.04234
G1 X-9.534 Y14.069 E0.04237
G1 X-10.002 Y13.868 E0.04235
G1 X-10.434 Y13.597 E0.0424
G1 X-10.817 Y13.261 E0.04236
G1 X-11.143 Y12.87 E0.04233
G1 X-11.404 Y12.432 E0.0424
G1 X-11.593 Y11.959 E0.04235
G1 X-11.707 Y11.462 E0.0424
G1 X-11.749 Y10.746 E0.05964
G1 X-11.75 Y-21.37 E2.67046
G1 X-11.741 Y-22.035 E0.0553
G1 X-11.694 Y-22.542 E0.04234
G1 X-11.568 Y-23.036 E0.04239
G1 X-11.367 Y-23.504 E0.04235
G1 X-11.095 Y-23.935 E0.04238
G1 X-10.759 Y-24.318 E0.04236
G1 X-10.368 Y-24.644 E0.04233
G1 X-9.93 Y-24.905 E0.0424
G1 X-9.457 Y-25.094 E0.04235
G1 X-8.96 Y-25.207 E0.04238
G1 X-8.261 Y-25.249 E0.05823
G1 X7.84 Y-25.25 E1.3388
G1 X8.538 Y-25.24 E0.05804
G1 X9.045 Y-25.192 E0.04235
G1 X9.539 Y-25.067 E0.04237
G1 X10.007 Y-24.865 E0.04238
G1 X10.437 Y-24.593 E0.04231
G1 X10.82 Y-24.257 E0.04236
G1 X11.146 Y-23.865 E0.04239
G1 X11.406 Y-23.427 E0.04235
G1 X11.595 Y-22.954 E0.04235
G1 X11.707 Y-22.457 E0.04236
G1 X11.749 Y-21.761 E0.05798
G1 X11.75 Y10.304 E2.66622
M566 X1800 Y1800
G1 F1500 E-6.5
;MESH:MS26-MotorClampR.3mf
G0 F3600 X9.165 Y10.304
G0 X7.98 Y10.304
G0 X6.75 Y9.25
M566 X1200 Y1200
;TYPE:WALL-INNER
G1 F1500 E6.5
G1 F3000 X3.922 Y9.25 E0.23515
G1 X4.255 Y8.774 E0.0483
G1 X4.649 Y7.944 E0.0764
G1 X4.9 Y7.065 E0.07601
G1 X5.005 Y6.153 E0.07633
G1 X4.953 Y5.234 E0.07654
G1 X4.749 Y4.342 E0.07609
G1 X4.403 Y3.491 E0.07639
G1 X3.915 Y2.712 E0.07643
G1 X3.309 Y2.026 E0.07611
G1 X2.593 Y1.444 E0.07672
G1 X1.772 Y0.989 E0.07805
G1 X0.934 Y0.683 E0.07418
G1 X0.034 Y0.524 E0.07599
G1 X-.615 Y0.497 E0.05401
G1 X-1.503 Y0.588 E0.07422
G1 X-2.383 Y0.825 E0.07578
G1 X-3.214 Y1.21 E0.07615
G1 X-3.969 Y1.726 E0.07604
G1 X-4.63 Y2.358 E0.07604
G1 X-5.176 Y3.098 E0.07647
G1 X-5.592 Y3.91 E0.07586
G1 X-5.869 Y4.785 E0.07632
G1 X-5.997 Y5.694 E0.07633
G1 X-5.973 Y6.612 E0.07636
G1 X-5.792 Y7.512 E0.07633
G1 X-5.47 Y8.37 E0.0762
G1 X-5.008 Y9.16 E0.0761
G1 X-4.933 Y9.25 E0.00974
G1 X-6.75 Y9.25 E0.15108
G1 X-6.75 Y-20.25 E2.45293
G1 X-4.919 Y-20.25 E0.15225
G1 X-5.184 Y-19.893 E0.03697
G1 X-5.599 Y-19.075 E0.07627
G1 X-5.874 Y-18.2 E0.07627
G1 X-5.997 Y-17.292 E0.07619
G1 X-5.972 Y-16.376 E0.07619
G1 X-5.789 Y-15.473 E0.07661
G1 X-5.462 Y-14.619 E0.07604
G1 X-4.999 Y-13.829 E0.07614
G1 X-4.414 Y-13.127 E0.07598
G1 X-3.715 Y-12.531 E0.07638
G1 X-2.927 Y-12.06 E0.07633
G1 X-2.071 Y-11.723 E0.07649
G1 X-1.178 Y-11.536 E0.07586
G1 X-.263 Y-11.5 E0.07614
G1 X0.663 Y-11.617 E0.07761
G1 X1.518 Y-11.878 E0.07433
G1 X2.352 Y-12.292 E0.07742
G1 X3.096 Y-12.831 E0.07639
G1 X3.735 Y-13.485 E0.07603
G1 X4.261 Y-14.236 E0.07624
G1 X4.655 Y-15.066 E0.0764
G1 X4.901 Y-15.948 E0.07614
G1 X5.005 Y-16.856 E0.07599
G1 X4.952 Y-17.777 E0.07671
G1 X4.745 Y-18.673 E0.07647
G1 X4.395 Y-19.519 E0.07613
G1 X3.939 Y-20.25 E0.07164
G1 X6.75 Y-20.25 E0.23374
G1 X6.75 Y9.25 E2.45293
M566 X1800 Y1800
G0 F3600 X7.25 Y9.75
M566 X1200 Y1200
G1 F3000 X3.402 Y9.75 E0.31996
G1 X2.805 Y9.75 E0.04964
G1 X3.343 Y9.204 E0.03755
G1 X3.821 Y8.521 E0.06932
G1 X4.18 Y7.767 E0.06944
G1 X4.408 Y6.967 E0.06917
G1 X4.503 Y6.138 E0.06938
G1 X4.456 Y5.304 E0.06946
G1 X4.271 Y4.493 E0.06917
G1 X3.956 Y3.72 E0.06941
G1 X3.513 Y3.012 E0.06944
G1 X2.962 Y2.388 E0.06922
G1 X2.312 Y1.86 E0.06963
G1 X1.564 Y1.445 E0.07113
G1 X0.804 Y1.168 E0.06726
G1 X-0.02 Y1.022 E0.06958
G1 X-.6 Y0.998 E0.04827
G1 X-1.412 Y1.081 E0.06787
G1 X-2.212 Y1.297 E0.0689
G1 X-2.966 Y1.646 E0.06909
G1 X-3.653 Y2.116 E0.06921
G1 X-4.253 Y2.69 E0.06904
G1 X-4.75 Y3.362 E0.0695
G1 X-5.128 Y4.101 E0.06902
G1 X-5.38 Y4.896 E0.06935
G1 X-5.496 Y5.722 E0.06936
G1 X-5.474 Y6.556 E0.06937
G1 X-5.31 Y7.374 E0.06937
G1 X-5.017 Y8.154 E0.06928
G1 X-4.597 Y8.872 E0.06917
G1 X-4.062 Y9.513 E0.06942
G1 X-3.786 Y9.75 E0.03025
G1 X-7.25 Y9.75 E0.28803
G1 X-7.25 Y-20.75 E2.53609
G1 X-3.794 Y-20.75 E0.28737
G1 X-4.26 Y-20.3 E0.05387
G1 X-4.757 Y-19.629 E0.06943
G1 X-5.134 Y-18.886 E0.06928
G1 X-5.384 Y-18.091 E0.0693
G1 X-5.496 Y-17.265 E0.06931
G1 X-5.473 Y-16.433 E0.06921
G1 X-5.307 Y-15.613 E0.06957
G1 X-5.01 Y-14.836 E0.06917
G1 X-4.589 Y-14.118 E0.06921
G1 X-4.057 Y-13.48 E0.06907
G1 X-3.422 Y-12.939 E0.06936
G1 X-2.706 Y-12.51 E0.0694
G1 X-1.927 Y-12.204 E0.06959
G1 X-1.116 Y-12.034 E0.0689
G1 X-.285 Y-12.001 E0.06915
G1 X0.558 Y-12.108 E0.07066
G1 X1.333 Y-12.344 E0.06736
G1 X2.092 Y-12.721 E0.07047
G1 X2.768 Y-13.211 E0.06942
G1 X3.349 Y-13.805 E0.06909
G1 X3.827 Y-14.488 E0.06932
G1 X4.185 Y-15.242 E0.0694
G1 X4.409 Y-16.044 E0.06924
G1 X4.503 Y-16.87 E0.06913
G1 X4.455 Y-17.706 E0.06963
G1 X4.267 Y-18.52 E0.06947
G1 X3.949 Y-19.289 E0.06919
G1 X3.507 Y-19.997 E0.0694
G1 X2.954 Y-20.619 E0.0692
G1 X2.792 Y-20.75 E0.01732
G1 X7.25 Y-20.75 E0.37068
G1 X7.25 Y9.75 E2.53609
M566 X1800 Y1800
G0 F3600 X7.75 Y10.25
M566 X1200 Y1200
G1 F3000 X1.823 Y10.25 E0.49283
G1 X0.948 Y10.25 E0.07276
G1 X1.151 Y10.189 E0.01763
G1 X1.823 Y9.856 E0.03635
G1 X2.431 Y9.417 E0.06236
G1 X2.957 Y8.883 E0.06233
G1 X3.388 Y8.268 E0.06245
G1 X3.711 Y7.59 E0.06245
G1 X3.916 Y6.87 E0.06225
G1 X4.001 Y6.124 E0.06243
G1 X3.959 Y5.374 E0.06246
G1 X3.793 Y4.644 E0.06225
G1 X3.509 Y3.949 E0.06243
G1 X3.111 Y3.312 E0.06246
G1 X2.615 Y2.75 E0.06233
G1 X2.031 Y2.276 E0.06254
G1 X1.356 Y1.901 E0.06421
G1 X0.674 Y1.653 E0.06034
G1 X-0.074 Y1.52 E0.06317
G1 X-.585 Y1.499 E0.04253
G1 X-1.321 Y1.574 E0.06152
G1 X-2.041 Y1.769 E0.06203
G1 X-2.718 Y2.082 E0.06202
G1 X-3.337 Y2.505 E0.06234
G1 X-3.876 Y3.022 E0.0621
G1 X-4.324 Y3.626 E0.06253
G1 X-4.664 Y4.292 E0.06218
G1 X-4.891 Y5.007 E0.06238
G1 X-4.995 Y5.75 E0.06238
G1 X-4.975 Y6.5 E0.06238
G1 X-4.828 Y7.236 E0.06241
G1 X-4.564 Y7.938 E0.06236
G1 X-4.186 Y8.584 E0.06224
G1 X-3.705 Y9.161 E0.06246
G1 X-3.135 Y9.65 E0.06245
G1 X-2.492 Y10.036 E0.06236
G1 X-1.948 Y10.25 E0.04861
G1 X-2.492 Y10.25 E0.00903
G1 X-3.008 Y10.25 E0.03282
G1 X-7.75 Y10.25 E0.3943
G1 X-7.75 Y-21.25 E2.61924
G1 X-2.725 Y-21.25 E0.41783
G1 X-1.967 Y-21.25 E0.06303
G1 X-2.044 Y-21.229 E0.00664
G1 X-2.725 Y-20.913 E0.02662
G1 X-3.343 Y-20.49 E0.06227
G1 X-3.883 Y-19.969 E0.06239
G1 X-4.33 Y-19.365 E0.06248
G1 X-4.669 Y-18.697 E0.06229
G1 X-4.894 Y-17.982 E0.06233
G1 X-4.995 Y-17.238 E0.06243
G1 X-4.974 Y-16.49 E0.06222
G1 X-4.825 Y-15.753 E0.06252
G1 X-4.558 Y-15.053 E0.0623
G1 X-4.179 Y-14.407 E0.06228
G1 X-3.7 Y-13.833 E0.06216
G1 X-3.129 Y-13.346 E0.0624
G1 X-2.485 Y-12.96 E0.06243
G1 X-1.783 Y-12.685 E0.06269
G1 X-1.054 Y-12.532 E0.06194
G1 X-.307 Y-12.502 E0.06216
G1 X0.453 Y-12.599 E0.06371
G1 X1.148 Y-12.81 E0.06039
G1 X1.832 Y-13.15 E0.06351
G1 X2.44 Y-13.591 E0.06245
G1 X2.963 Y-14.125 E0.06215
G1 X3.393 Y-14.74 E0.0624
G1 X3.715 Y-15.418 E0.06241
G1 X3.917 Y-16.14 E0.06234
G1 X4.001 Y-16.884 E0.06226
G1 X3.958 Y-17.635 E0.06255
G1 X3.789 Y-18.367 E0.06247
G1 X3.503 Y-19.059 E0.06226
G1 X3.105 Y-19.696 E0.06246
G1 X2.608 Y-20.256 E0.06226
G1 X2.025 Y-20.727 E0.06232
G1 X1.369 Y-21.095 E0.06254
G1 X0.939 Y-21.25 E0.03801
G1 X1.599 Y-21.25 E0.0498
G1 X7.75 Y-21.25 E0.51146
G1 X7.75 Y10.25 E2.61924
M566 X1800 Y1800
G0 F3600 X8.25 Y10.75
M566 X1200 Y1200
;TYPE:WALL-OUTER
G1 F3000 X-8.25 Y10.75 E1.37198
G1 X-8.25 Y-21.75 E2.70239
G1 X8.25 Y-21.75 E1.37198
G1 X8.25 Y10.75 E2.70239
M566 X1800 Y1800
G0 F3600 X8 Y10.75
G0 X7.93 Y10.43
G0 X3.27 Y8.166
G0 X2.955 Y8.015
M566 X1200 Y1200
G1 F3000 X3.242 Y7.413 E0.05545
G1 X3.424 Y6.773 E0.05533
G1 X3.499 Y6.11 E0.05548
G1 X3.462 Y5.444 E0.05546
G1 X3.315 Y4.795 E0.05533
G1 X3.062 Y4.178 E0.05545
G1 X2.709 Y3.612 E0.05547
G1 X2.268 Y3.112 E0.05544
G1 X1.75 Y2.692 E0.05545
G1 X1.148 Y2.357 E0.05729
G1 X0.544 Y2.138 E0.05342
G1 X-.128 Y2.018 E0.05676
G1 X-.57 Y2 E0.03678
G1 X-1.23 Y2.067 E0.05516
G1 X-1.87 Y2.241 E0.05515
G1 X-2.471 Y2.518 E0.05503
G1 X-3.021 Y2.894 E0.0554
G1 X-3.5 Y3.354 E0.05522
G1 X-3.898 Y3.89 E0.05551
G1 X-4.2 Y4.483 E0.05533
G1 X-4.402 Y5.118 E0.05541
G1 X-4.494 Y5.778 E0.05541
G1 X-4.476 Y6.444 E0.0554
G1 X-4.346 Y7.098 E0.05544
G1 X-4.111 Y7.722 E0.05544
G1 X-3.775 Y8.296 E0.0553
G1 X-3.348 Y8.809 E0.0555
G1 X-2.842 Y9.243 E0.05543
G1 X-2.27 Y9.586 E0.05546
G1 X-1.651 Y9.83 E0.05532
G1 X-.999 Y9.969 E0.05543
G1 X-.333 Y9.997 E0.05543
G1 X0.328 Y9.914 E0.05539
G1 X0.967 Y9.722 E0.05548
G1 X1.564 Y9.426 E0.05541
G1 X2.104 Y9.036 E0.05539
G1 X2.572 Y8.562 E0.05539
G1 X2.955 Y8.015 E0.05552
M566 X1800 Y1800
G0 F3600 X3.062 Y7.79
G0 X3.378 Y7.942
G0 X3.709 Y6.829
G0 X3.789 Y6.115
G0 X1.117 Y-12.963
G0 X0.963 Y-13.276
M566 X1200 Y1200
G1 F3000 X1.572 Y-13.579 E0.05656
G1 X2.112 Y-13.971 E0.05548
G1 X2.577 Y-14.445 E0.05521
G1 X2.959 Y-14.992 E0.05548
G1 X3.245 Y-15.594 E0.05542
G1 X3.425 Y-16.236 E0.05544
G1 X3.499 Y-16.898 E0.05539
G1 X3.461 Y-17.564 E0.05547
G1 X3.311 Y-18.214 E0.05547
G1 X3.057 Y-18.829 E0.05533
G1 X2.703 Y-19.395 E0.05551
G1 X2.261 Y-19.893 E0.05537
G1 X1.743 Y-20.312 E0.0554
G1 X1.161 Y-20.639 E0.05551
G1 X0.535 Y-20.864 E0.05531
G1 X-.122 Y-20.981 E0.05549
G1 X-.565 Y-21 E0.03687
G1 X-1.23 Y-20.933 E0.05557
G1 X-1.872 Y-20.758 E0.05533
G1 X-2.477 Y-20.477 E0.05547
G1 X-3.026 Y-20.101 E0.05533
G1 X-3.506 Y-19.638 E0.05545
G1 X-3.903 Y-19.101 E0.05553
G1 X-4.204 Y-18.508 E0.0553
G1 X-4.404 Y-17.872 E0.05544
G1 X-4.494 Y-17.211 E0.05547
G1 X-4.475 Y-16.547 E0.05523
G1 X-4.343 Y-15.892 E0.05556
G1 X-4.106 Y-15.27 E0.05535
G1 X-3.769 Y-14.696 E0.05535
G1 X-3.343 Y-14.186 E0.05525
G1 X-2.836 Y-13.753 E0.05544
G1 X-2.264 Y-13.41 E0.05546
G1 X-1.64 Y-13.166 E0.05571
G1 X-.992 Y-13.03 E0.05506
G1 X-.329 Y-13.003 E0.05517
G1 X0.348 Y-13.09 E0.05676
G1 X0.963 Y-13.276 E0.05343
M566 X1800 Y1800
G0 F3600 X1.186 Y-13.387
G0 X1.341 Y-13.074
G0 X1.7 Y-11.421
M566 X1200 Y1200
;TYPE:SKIN
G1 F3000 X2.607 Y-11.871 E0.08419
G1 X3.417 Y-12.459 E0.08323
G1 X4.113 Y-13.171 E0.08279
G1 X4.686 Y-13.989 E0.08304
G1 X5.116 Y-14.894 E0.08331
G1 X5.383 Y-15.854 E0.08285
G1 X5.497 Y-16.842 E0.0827
G1 X5.438 Y-17.847 E0.08371
G1 X5.213 Y-18.822 E0.0832
G1 X4.832 Y-19.744 E0.08295
G1 X4.822 Y-19.76 E0.00157
G1 X6.26 Y-19.76 E0.11957
G1 X6.26 Y8.76 E2.37145
G1 X4.804 Y8.76 E0.12107
G1 X5.109 Y8.118 E0.0591
G1 X5.382 Y7.161 E0.08275
G1 X5.497 Y6.167 E0.0832
G1 X5.439 Y5.165 E0.08346
G1 X5.218 Y4.195 E0.08272
G1 X4.84 Y3.267 E0.08332
G1 X4.309 Y2.418 E0.08327
G1 X3.65 Y1.671 E0.08283
G1 X2.869 Y1.036 E0.0837
G1 X1.976 Y0.542 E0.08486
G1 X1.062 Y0.208 E0.08091
G1 X0.087 Y0.036 E0.08232
G1 X-.63 Y0.005 E0.05967
G1 X-1.593 Y0.104 E0.0805
G1 X-2.551 Y0.363 E0.08252
G1 X-3.457 Y0.783 E0.08304
G1 X-4.279 Y1.344 E0.08275
G1 X-4.999 Y2.033 E0.08286
G1 X-5.594 Y2.839 E0.0833
G1 X-6.047 Y3.723 E0.08259
G1 X-6.26 Y4.395 E0.05862
G1 X-6.26 Y-15.333 E1.64039
G1 X-5.905 Y-14.406 E0.08254
G1 X-5.401 Y-13.546 E0.08288
G1 X-4.763 Y-12.782 E0.08276
G1 X-4.001 Y-12.131 E0.08333
G1 X-3.144 Y-11.619 E0.08301
G1 X-2.212 Y-11.252 E0.08329
G1 X-1.239 Y-11.048 E0.08266
G1 X-.242 Y-11.008 E0.08297
G1 X0.766 Y-11.136 E0.08449
G1 X1.7 Y-11.421 E0.0812
M566 X1800 Y1800
G0 F3600 X-2.393 Y-13.151
G0 X-3.009 Y-13.52
G0 X-3.548 Y-13.98
G0 X-3.96 Y-14.474
G0 X-6.26 Y-18.606
M566 X1200 Y1200
G1 F3000 X-6.26 Y-19.76 E0.09596
G1 X-5.801 Y-19.76 E0.03817
G1 X-6.054 Y-19.261 E0.04652
G1 X-6.26 Y-18.606 E0.05709
M566 X1800 Y1800
G0 F3600 X-6.26 Y7.66
M566 X1200 Y1200
G1 F3000 X-5.914 Y8.582 E0.08189
G1 X-5.81 Y8.76 E0.01714
G1 X-6.26 Y8.76 E0.03742
G1 X-6.26 Y7.66 E0.09147
M566 X1800 Y1800
G0 F3600 X-5.776 Y2.708
M566 X1200 Y1200
G1 F3000 X-6.035 Y2.45 E0.0304
M566 X1800 Y1800
G0 F3600 X-5.475 Y2.302
M566 X1200 Y1200
G1 F3000 X-6.035 Y1.743 E0.06579
M566 X1800 Y1800
G0 F3600 X-6.035 Y1.035
M566 X1200 Y1200
G1 F3000 X-5.175 Y1.895 E0.10113
M566 X1800 Y1800
G0 F3600 X-4.816 Y1.547
M566 X1200 Y1200
G1 F3000 X-6.035 Y0.328 E0.14335
M566 X1800 Y1800
G0 F3600 X-6.035 Y-.378
M566 X1200 Y1200
G1 F3000 X-4.455 Y1.201 E0.18574
M566 X1800 Y1800
G0 F3600 X-4.041 Y0.908
M566 X1200 Y1200
G1 F3000 X-6.035 Y-1.085 E0.23442
M566 X1800 Y1800
G0 F3600 X-6.035 Y-1.792
M566 X1200 Y1200
G1 F3000 X-3.62 Y0.622 E0.28393
M566 X1800 Y1800
G0 F3600 X-3.144 Y0.391
M566 X1200 Y1200
G1 F3000 X-6.035 Y-2.499 E0.3399
