;FLAVOR:RepRap
;TIME:320
;Filament used: 1.02079m
;Layer height: 0.3
;MINX:-17.25
;MINY:-11.25
;MINZ:0.4
;MAXX:17.25
;MAXY:11.25
;MAXZ:10.9
;POSTPROCESSED
;Generated with Cura_SteamEngine 4.13.1
T0
M190 S60
M104 S220
M109 S220
M82 ;absolute extrusion mode
G28 ;Home
G1 Z15.0 F6000 ;Move the platform down 15mm
;Prime the extruder
G92 E0
G1 F200 E3
G92 E0
M83 ;relative extrusion mode
G1 F1500 E-6.5
;LAYER_COUNT:36
;LAYER:0
M107 P1
M204 T5000
M566 X1800 Y1800
G0 F3600 X-12.348 Y11.25 Z0.4
M204 P3000
M566 X1200 Y1200
;TYPE:SKIRT
G1 F1500 E6.5
G1 F3000 X-13.046 Y11.241 E0.05804
G1 X-13.627 Y11.193 E0.04847
G1 X-14.195 Y11.067 E0.04838
G1 X-14.742 Y10.864 E0.04851
G1 X-15.255 Y10.588 E0.04844
G1 X-15.726 Y10.244 E0.0485
G1 X-16.145 Y9.84 E0.0484
G1 X-16.505 Y9.381 E0.0485
G1 X-16.799 Y8.878 E0.04844
G1 X-17.021 Y8.339 E0.04847
G1 X-17.168 Y7.775 E0.04846
G1 X-17.239 Y7.106 E0.05594
G1 X-17.25 Y6.658 E0.03726
G1 X-17.25 Y-6.384 E1.08445
G1 X-17.241 Y-7.049 E0.0553
G1 X-17.193 Y-7.629 E0.04839
G1 X-17.066 Y-8.198 E0.04848
G1 X-16.863 Y-8.744 E0.04844
G1 X-16.586 Y-9.257 E0.04848
G1 X-16.243 Y-9.728 E0.04845
G1 X-15.838 Y-10.147 E0.04846
G1 X-15.379 Y-10.507 E0.0485
G1 X-14.876 Y-10.8 E0.0484
G1 X-14.337 Y-11.022 E0.04847
G1 X-13.773 Y-11.168 E0.04844
G1 X-13.11 Y-11.239 E0.05544
G1 X-12.67 Y-11.25 E0.0366
G1 X12.354 Y-11.25 E2.08075
G1 X13.052 Y-11.24 E0.05804
G1 X13.633 Y-11.191 E0.04848
G1 X14.201 Y-11.064 E0.0484
G1 X14.747 Y-10.86 E0.04847
G1 X15.26 Y-10.584 E0.04844
G1 X15.73 Y-10.239 E0.04848
G1 X16.149 Y-9.834 E0.04846
G1 X16.509 Y-9.375 E0.0485
G1 X16.802 Y-8.872 E0.0484
G1 X17.023 Y-8.333 E0.04844
G1 X17.169 Y-7.768 E0.04852
G1 X17.239 Y-7.109 E0.0551
G1 X17.25 Y-6.67 E0.03651
G1 X17.25 Y6.317 E1.07987
G1 X17.241 Y7.044 E0.06045
G1 X17.194 Y7.624 E0.04839
G1 X17.067 Y8.193 E0.04848
G1 X16.865 Y8.74 E0.04849
G1 X16.589 Y9.253 E0.04844
G1 X16.246 Y9.724 E0.04845
G1 X15.841 Y10.144 E0.04851
G1 X15.383 Y10.504 E0.04844
G1 X14.88 Y10.798 E0.04844
G1 X14.342 Y11.021 E0.04843
G1 X13.778 Y11.168 E0.04846
G1 X13.11 Y11.239 E0.05586
G1 X12.67 Y11.25 E0.0366
G1 X-12.348 Y11.25 E2.08026
M566 X1800 Y1800
G0 F3600 X-12.341 Y10.75
M566 X1200 Y1200
G1 F3000 X-13.039 Y10.741 E0.05804
G1 X-13.585 Y10.694 E0.04557
G1 X-14.117 Y10.568 E0.04546
G1 X-14.626 Y10.366 E0.04553
G1 X-15.1 Y10.092 E0.04552
G1 X-15.529 Y9.752 E0.04552
G1 X-15.904 Y9.353 E0.04553
G1 X-16.217 Y8.904 E0.04551
G1 X-16.461 Y8.414 E0.04552
G1 X-16.631 Y7.894 E0.04549
G1 X-16.74 Y7.092 E0.0673
G1 X-16.75 Y6.658 E0.0361
G1 X-16.75 Y-6.377 E1.08386
G1 X-16.741 Y-7.042 E0.0553
G1 X-16.693 Y-7.587 E0.04549
G1 X-16.567 Y-8.12 E0.04554
G1 X-16.365 Y-8.628 E0.04546
G1 X-16.09 Y-9.102 E0.04557
G1 X-15.75 Y-9.531 E0.04552
G1 X-15.351 Y-9.905 E0.04547
G1 X-14.902 Y-10.218 E0.04551
G1 X-14.412 Y-10.462 E0.04552
G1 X-13.891 Y-10.631 E0.04554
G1 X-13.096 Y-10.74 E0.06672
G1 X-12.67 Y-10.75 E0.03543
G1 X12.347 Y-10.75 E2.08017
G1 X13.045 Y-10.74 E0.05804
G1 X13.59 Y-10.692 E0.04549
G1 X14.122 Y-10.565 E0.04548
G1 X14.631 Y-10.362 E0.04557
G1 X15.104 Y-10.088 E0.04545
G1 X15.533 Y-9.747 E0.04557
G1 X15.907 Y-9.348 E0.04547
G1 X16.219 Y-8.898 E0.04553
G1 X16.463 Y-8.408 E0.04552
G1 X16.632 Y-7.887 E0.04554
G1 X16.74 Y-7.095 E0.06646
G1 X16.75 Y-6.67 E0.03535
G1 X16.75 Y6.31 E1.07929
G1 X16.741 Y7.037 E0.06045
G1 X16.694 Y7.583 E0.04557
G1 X16.568 Y8.116 E0.04554
G1 X16.367 Y8.624 E0.04543
G1 X16.093 Y9.098 E0.04552
G1 X15.753 Y9.527 E0.04552
G1 X15.354 Y9.902 E0.04553
G1 X14.905 Y10.216 E0.04556
G1 X14.416 Y10.46 E0.04544
G1 X13.895 Y10.63 E0.04557
G1 X13.096 Y10.74 E0.06706
G1 X12.67 Y10.75 E0.03543
G1 X-12.341 Y10.75 E2.07967
M566 X1800 Y1800
G0 F3600 X-12.335 Y10.25
M566 X1200 Y1200
G1 F3000 X-13.033 Y10.241 E0.05804
G1 X-13.54 Y10.194 E0.04234
G1 X-14.034 Y10.069 E0.04237
G1 X-14.502 Y9.868 E0.04235
G1 X-14.934 Y9.597 E0.0424
G1 X-15.317 Y9.261 E0.04236
G1 X-15.643 Y8.87 E0.04233
G1 X-15.904 Y8.432 E0.0424
G1 X-16.093 Y7.959 E0.04235
G1 X-16.207 Y7.462 E0.0424
G1 X-16.249 Y6.746 E0.05964
G1 X-16.25 Y-6.37 E1.0906
G1 X-16.241 Y-7.035 E0.0553
G1 X-16.194 Y-7.542 E0.04234
G1 X-16.068 Y-8.036 E0.04239
G1 X-15.867 Y-8.504 E0.04235
G1 X-15.595 Y-8.935 E0.04238
G1 X-15.259 Y-9.318 E0.04236
G1 X-14.868 Y-9.644 E0.04233
G1 X-14.43 Y-9.905 E0.0424
G1 X-13.957 Y-10.094 E0.04235
G1 X-13.46 Y-10.207 E0.04238
G1 X-12.761 Y-10.249 E0.05823
G1 X12.34 Y-10.25 E2.08716
G1 X13.038 Y-10.24 E0.05804
G1 X13.545 Y-10.192 E0.04235
G1 X14.039 Y-10.067 E0.04237
G1 X14.507 Y-9.865 E0.04238
G1 X14.937 Y-9.593 E0.04231
G1 X15.32 Y-9.257 E0.04236
G1 X15.646 Y-8.865 E0.04239
G1 X15.906 Y-8.427 E0.04235
G1 X16.095 Y-7.954 E0.04235
G1 X16.207 Y-7.457 E0.04236
G1 X16.249 Y-6.761 E0.05798
G1 X16.25 Y6.304 E1.08636
G1 X16.241 Y7.031 E0.06045
G1 X16.195 Y7.539 E0.04241
G1 X16.07 Y8.033 E0.04237
G1 X15.869 Y8.501 E0.04235
G1 X15.598 Y8.932 E0.04233
G1 X15.262 Y9.316 E0.04243
G1 X14.871 Y9.642 E0.04233
G1 X14.433 Y9.903 E0.0424
G1 X13.961 Y10.093 E0.04231
G1 X13.464 Y10.206 E0.04238
G1 X12.761 Y10.249 E0.05856
G1 X-12.335 Y10.25 E2.08674
M566 X1800 Y1800
G1 F1500 E-6.5
;MESH:MS26-test1.3mf
G0 F3600 X-12.335 Y7.665
G0 X-12.335 Y6.48
G0 X-11.25 Y5.25
M566 X1200 Y1200
;TYPE:WALL-INNER
G1 F1500 E6.5
G1 F3000 X-11.25 Y-5.25 E0.87308
G1 X2.75 Y-5.25 E1.1641
G1 X2.75 Y5.25 E0.87308
G1 X-11.25 Y5.25 E1.1641
M566 X1800 Y1800
G0 F3600 X-11.75 Y5.75
M566 X1200 Y1200
G1 F3000 X-11.75 Y-5.75 E0.95623
G1 X3.25 Y-5.75 E1.24726
G1 X3.25 Y5.75 E0.95623
G1 X-11.75 Y5.75 E1.24726
M566 X1800 Y1800
G0 F3600 X-12.25 Y6.25
M566 X1200 Y1200
G1 F3000 X-12.25 Y-6.25 E1.03938
G1 X3.75 Y-6.25 E1.33041
G1 X3.75 Y6.25 E1.03938
G1 X-12.25 Y6.25 E1.33041
M566 X1800 Y1800
G0 F3600 X-12.75 Y6.75
M566 X1200 Y1200
;TYPE:WALL-OUTER
G1 F3000 X-12.75 Y-6.75 E1.12253
G1 X12.75 Y-6.75 E2.12033
G1 X12.75 Y6.75 E1.12253
G1 X-12.75 Y6.75 E2.12033
M566 X1800 Y1800
G0 F3600 X-12.75 Y6.5
G0 X-12.43 Y6.43
G0 X4.25 Y5.85
G0 X4.25 Y5.75
M566 X1200 Y1200
G1 F3000 X11.75 Y5.75 E0.62363
G1 X11.75 Y-5.75 E0.95623
G1 X4.25 Y-5.75 E0.62363
G1 X4.25 Y5.75 E0.95623
M566 X1800 Y1800
G0 F3600 X4.5 Y5.75
G0 X4.5 Y5.85
G0 X2.26 Y4.76
M566 X1200 Y1200
;TYPE:SKIN
G1 F3000 X-10.76 Y4.76 E1.08262
G1 X-10.76 Y-4.76 E0.79159
G1 X2.26 Y-4.76 E1.08262
G1 X2.26 Y4.76 E0.79159
M566 X1800 Y1800
G0 F3600 X1.829 Y-4.533
M566 X1200 Y1200
G1 F3000 X2.035 Y-4.328 E0.02417
M566 X1800 Y1800
G0 F3600 X2.035 Y-3.621
M566 X1200 Y1200
G1 F3000 X1.122 Y-4.533 E0.1073
M566 X1800 Y1800
G0 F3600 X0.415 Y-4.533
M566 X1200 Y1200
G1 F3000 X2.035 Y-2.914 E0.19044
M566 X1800 Y1800
G0 F3600 X2.035 Y-2.207
M566 X1200 Y1200
G1 F3000 X-.291 Y-4.533 E0.27352
M566 X1800 Y1800
G0 F3600 X-.998 Y-4.533
M566 X1200 Y1200
G1 F3000 X2.035 Y-1.5 E0.35666
M566 X1800 Y1800
G0 F3600 X2.035 Y-.793
M566 X1200 Y1200
G1 F3000 X-1.705 Y-4.533 E0.4398
M566 X1800 Y1800
G0 F3600 X-2.412 Y-4.533
M566 X1200 Y1200
G1 F3000 X2.035 Y-0.086 E0.52293
M566 X1800 Y1800
G0 F3600 X2.035 Y0.62
M566 X1200 Y1200
G1 F3000 X-3.119 Y-4.533 E0.60601
M566 X1800 Y1800
G0 F3600 X-3.826 Y-4.533
M566 X1200 Y1200
G1 F3000 X2.035 Y1.327 E0.68915
M566 X1800 Y1800
G0 F3600 X2.035 Y2.035
M566 X1200 Y1200
G1 F3000 X-4.534 Y-4.534 E0.77246
M566 X1800 Y1800
G0 F3600 X-5.241 Y-4.534
M566 X1200 Y1200
G1 F3000 X2.035 Y2.742 E0.8556
M566 X1800 Y1800
G0 F3600 X2.035 Y3.449
M566 X1200 Y1200
G1 F3000 X-5.948 Y-4.534 E0.93874
M566 X1800 Y1800
G0 F3600 X-6.655 Y-4.534
M566 X1200 Y1200
G1 F3000 X2.035 Y4.156 E1.02188
M566 X1800 Y1800
G0 F3600 X1.705 Y4.533
M566 X1200 Y1200
G1 F3000 X-7.363 Y-4.534 E1.06627
M566 X1800 Y1800
G0 F3600 X-8.07 Y-4.534
M566 X1200 Y1200
G1 F3000 X0.998 Y4.533 E1.06627
M566 X1800 Y1800
G0 F3600 X0.291 Y4.533
M566 X1200 Y1200
G1 F3000 X-8.777 Y-4.534 E1.06627
M566 X1800 Y1800
G0 F3600 X-9.484 Y-4.534
M566 X1200 Y1200
G1 F3000 X-.415 Y4.533 E1.06633
M566 X1800 Y1800
G0 F3600 X-1.122 Y4.533
M566 X1200 Y1200
G1 F3000 X-10.191 Y-4.534 E1.06633
M566 X1800 Y1800
G0 F3600 X-10.534 Y-4.17
M566 X1200 Y1200
G1 F3000 X-1.829 Y4.533 E1.02352
M566 X1800 Y1800
G0 F3600 X-2.537 Y4.533
M566 X1200 Y1200
G1 F3000 X-10.534 Y-3.463 E0.94033
M566 X1800 Y1800
G0 F3600 X-10.534 Y-2.756
M566 X1200 Y1200
G1 F3000 X-3.244 Y4.533 E0.85719
M566 X1800 Y1800
G0 F3600 X-3.951 Y4.533
M566 X1200 Y1200
G1 F3000 X-10.534 Y-2.049 E0.77405
M566 X1800 Y1800
G0 F3600 X-10.534 Y-1.342
M566 X1200 Y1200
G1 F3000 X-4.657 Y4.534 E0.69103
M566 X1800 Y1800
G0 F3600 X-5.364 Y4.534
M566 X1200 Y1200
G1 F3000 X-10.534 Y-.634 E0.60783
M566 X1800 Y1800
G0 F3600 X-10.534 Y0.072
M566 X1200 Y1200
G1 F3000 X-6.071 Y4.534 E0.52476
M566 X1800 Y1800
G0 F3600 X-6.779 Y4.534
M566 X1200 Y1200
G1 F3000 X-10.534 Y0.779 E0.44156
M566 X1800 Y1800
G0 F3600 X-10.534 Y1.486
M566 X1200 Y1200
G1 F3000 X-7.486 Y4.534 E0.35842
M566 X1800 Y1800
G0 F3600 X-8.193 Y4.534
M566 X1200 Y1200
G1 F3000 X-10.534 Y2.193 E0.27528
M566 X1800 Y1800
G0 F3600 X-10.534 Y2.9
M566 X1200 Y1200
G1 F3000 X-8.9 Y4.534 E0.19215
M566 X1800 Y1800
G0 F3600 X-9.607 Y4.534
M566 X1200 Y1200
G1 F3000 X-10.534 Y3.607 E0.10901
M566 X1800 Y1800
G0 F3600 X-10.534 Y4.314
M566 X1200 Y1200
G1 F3000 X-10.314 Y4.534 E0.02587
M566 X1800 Y1800
G0 F3600 X3.975 Y6.096
G0 X4.181 Y6.302
M566 X1200 Y1200
;TYPE:SKIN
G1 F3000 X4.481 Y6.249 E0.02659
G1 X12.248 Y6.238 E0.67803
G1 X12.248 Y-5.428 E1.0184
G1 X12.015 Y-6.015 E0.05513
G1 X11.427 Y-6.249 E0.05525
G1 X4.356 Y-6.249 E0.61727
G1 X4.119 Y-6.133 E0.02303
M566 X1800 Y1800
G0 F3600 X3.975 Y-6.277
G0 X11.875 Y-6.509
M566 X1200 Y1200
G1 F3000 X12.509 Y-5.875 E0.03728
M566 X1800 Y1800
G0 F3600 X12.509 Y-6.228
M566 X1200 Y1200
G1 F3000 X12.228 Y-6.509 E0.01652
M566 X1800 Y1800
G0 F3600 X11.778 Y5.778
G0 X3.975 Y6.4
G0 X3.975 Y6.45
M566 X1200 Y1200
G1 F3000 X4.034 Y6.509 E0.00347
M566 X1800 Y1800
G0 F3600 X4.034 Y6.25
;MESH:NONMESH
G0 F600 X4.034 Y6.25 Z0.7
G0 F3600 X2.75 Y5.25
;TIME_ELAPSED:23.117076
;LAYER:1
M106 S42.5 P1
M566 X1200 Y1200
;TYPE:WALL-INNER
;MESH:MS26-test1.3mf
G1 F4500 X-11.25 Y5.25 E0.87308
G1 X-11.25 Y-5.25 E0.65481
G1 X2.75 Y-5.25 E0.87308
G1 X2.75 Y5.25 E0.65481
M566 X1800 Y1800
G0 F5400 X3.25 Y5.75
M566 X1200 Y1200
G1 F4500 X-11.75 Y5.75 E0.93544
G1 X-11.75 Y-5.75 E0.71717
G1 X3.25 Y-5.75 E0.93544
G1 X3.25 Y5.75 E0.71717
M566 X1800 Y1800
G0 F5400 X3.75 Y6.25
M566 X1200 Y1200
G1 F4500 X-12.25 Y6.25 E0.9978
G1 X-12.25 Y-6.25 E0.77953
G1 X3.75 Y-6.25 E0.9978
G1 X3.75 Y6.25 E0.77953
M566 X1800 Y1800
G0 F5400 X4.25 Y5.75
M566 X1200 Y1200
;TYPE:WALL-OUTER
G1 F3000 X11.75 Y5.75 E0.46772
G1 X11.75 Y-5.75 E0.71717
G1 X4.25 Y-5.75 E0.46772
G1 X4.25 Y5.75 E0.71717
M566 X1800 Y1800
G0 F5400 X4.5 Y5.75
G0 X4.5 Y5.85
G0 X12.68 Y6.68
G0 X12.75 Y6.75
M566 X1200 Y1200
G1 F3000 X-12.75 Y6.75 E1.59025
G1 X-12.75 Y-6.75 E0.8419
G1 X12.75 Y-6.75 E1.59025
G1 X12.75 Y6.75 E0.8419
M566 X1800 Y1800
G0 F5400 X12.5 Y6.75
G0 X12.5 Y6.65
G0 X3.972 Y5.778
G0 X2.26 Y4.76
M566 X1200 Y1200
;TYPE:SKIN
G1 F3000 X-10.76 Y4.76 E0.81196
G1 X-10.76 Y-4.76 E0.59369
G1 X2.26 Y-4.76 E0.81196
G1 X2.26 Y4.76 E0.59369
M566 X1800 Y1800
G0 F5400 X1.829 Y4.534
M566 X1200 Y1200
G1 F3000 X2.035 Y4.328 E0.01817
M566 X1800 Y1800
G0 F5400 X2.035 Y3.621
M566 X1200 Y1200
G1 F3000 X1.122 Y4.534 E0.08052
M566 X1800 Y1800
G0 F5400 X0.415 Y4.534
M566 X1200 Y1200
G1 F3000 X2.035 Y2.914 E0.14287
M566 X1800 Y1800
G0 F5400 X2.035 Y2.207
M566 X1200 Y1200
G1 F3000 X-.292 Y4.534 E0.20523
M566 X1800 Y1800
G0 F5400 X-.999 Y4.534
M566 X1200 Y1200
G1 F3000 X2.035 Y1.5 E0.26758
M566 X1800 Y1800
G0 F5400 X2.035 Y0.793
M566 X1200 Y1200
G1 F3000 X-1.706 Y4.534 E0.32993
M566 X1800 Y1800
G0 F5400 X-2.413 Y4.534
M566 X1200 Y1200
G1 F3000 X2.035 Y0.086 E0.39229
M566 X1800 Y1800
G0 F5400 X2.035 Y-.62
M566 X1200 Y1200
G1 F3000 X-3.12 Y4.534 E0.4546
M566 X1800 Y1800
G0 F5400 X-3.827 Y4.534
M566 X1200 Y1200
G1 F3000 X2.035 Y-1.327 E0.51695
M566 X1800 Y1800
G0 F5400 X2.035 Y-2.035
M566 X1200 Y1200
G1 F3000 X-4.535 Y4.535 E0.57944
M566 X1800 Y1800
G0 F5400 X-5.242 Y4.535
M566 X1200 Y1200
G1 F3000 X2.035 Y-2.742 E0.64179
M566 X1800 Y1800
G0 F5400 X2.035 Y-3.449
M566 X1200 Y1200
G1 F3000 X-5.949 Y4.535 E0.70414
M566 X1800 Y1800
G0 F5400 X-6.656 Y4.535
M566 X1200 Y1200
G1 F3000 X2.035 Y-4.156 E0.7665
M566 X1800 Y1800
G0 F5400 X1.706 Y-4.534
M566 X1200 Y1200
G1 F3000 X-7.363 Y4.535 E0.79983
M566 X1800 Y1800
G0 F5400 X-8.07 Y4.535
M566 X1200 Y1200
G1 F3000 X0.999 Y-4.534 E0.79983
M566 X1800 Y1800
G0 F5400 X0.292 Y-4.534
M566 X1200 Y1200
G1 F3000 X-8.778 Y4.535 E0.79988
M566 X1800 Y1800
G0 F5400 X-9.485 Y4.535
M566 X1200 Y1200
G1 F3000 X-.415 Y-4.534 E0.79988
M566 X1800 Y1800
G0 F5400 X-1.122 Y-4.534
M566 X1200 Y1200
G1 F3000 X-10.192 Y4.535 E0.79988
M566 X1800 Y1800
G0 F5400 X-10.534 Y4.17
M566 X1200 Y1200
G1 F3000 X-1.829 Y-4.534 E0.76769
M566 X1800 Y1800
G0 F5400 X-2.536 Y-4.534
M566 X1200 Y1200
G1 F3000 X-10.534 Y3.463 E0.70533
M566 X1800 Y1800
G0 F5400 X-10.534 Y2.756
M566 X1200 Y1200
G1 F3000 X-3.243 Y-4.534 E0.64298
M566 X1800 Y1800
G0 F5400 X-3.95 Y-4.534
M566 X1200 Y1200
G1 F3000 X-10.534 Y2.049 E0.58063
M566 X1800 Y1800
G0 F5400 X-10.534 Y1.342
M566 X1200 Y1200
G1 F3000 X-4.657 Y-4.535 E0.51832
M566 X1800 Y1800
G0 F5400 X-5.364 Y-4.535
M566 X1200 Y1200
G1 F3000 X-10.534 Y0.634 E0.45592
M566 X1800 Y1800
G0 F5400 X-10.534 Y-0.072
M566 X1200 Y1200
G1 F3000 X-6.071 Y-4.535 E0.39361
M566 X1800 Y1800
G0 F5400 X-6.778 Y-4.535
M566 X1200 Y1200
G1 F3000 X-10.534 Y-.779 E0.33126
M566 X1800 Y1800
G0 F5400 X-10.534 Y-1.486
M566 X1200 Y1200
G1 F3000 X-7.485 Y-4.535 E0.2689
M566 X1800 Y1800
G0 F5400 X-8.192 Y-4.535
M566 X1200 Y1200
G1 F3000 X-10.534 Y-2.193 E0.20655
M566 X1800 Y1800
G0 F5400 X-10.534 Y-2.9
M566 X1200 Y1200
G1 F3000 X-8.899 Y-4.535 E0.1442
M566 X1800 Y1800
G0 F5400 X-9.606 Y-4.535
M566 X1200 Y1200
G1 F3000 X-10.534 Y-3.607 E0.08184
M566 X1800 Y1800
G0 F5400 X-10.534 Y-4.314
M566 X1200 Y1200
G1 F3000 X-10.313 Y-4.535 E0.01949
M566 X1800 Y1800
G0 F5400 X3.975 Y-6.096
G0 X4.182 Y-6.303
M566 X1200 Y1200
;TYPE:SKIN
G1 F3000 X4.481 Y-6.249 E0.01992
G1 X12.248 Y-6.238 E0.50916
G1 X12.248 Y5.428 E0.76476
G1 X12.014 Y6.015 E0.04143
G1 X11.427 Y6.249 E0.04143
G1 X4.356 Y6.249 E0.46353
G1 X4.119 Y6.133 E0.0173
M566 X1800 Y1800
G0 F5400 X3.975 Y6.277
G0 X11.874 Y6.51
M566 X1200 Y1200
G1 F3000 X12.509 Y5.875 E0.028
M566 X1800 Y1800
G0 F5400 X12.509 Y6.228
M566 X1200 Y1200
G1 F3000 X12.227 Y6.51 E0.01244
M566 X1800 Y1800
G0 F5400 X11.778 Y-5.778
G0 X3.975 Y-6.4
G0 X3.975 Y-6.45
M566 X1200 Y1200
G1 F3000 X4.035 Y-6.51 E0.00265
M566 X1800 Y1800
G0 F5400 X4.035 Y-6.25
;MESH:NONMESH
G0 F600 X4.035 Y-6.25 Z1
G0 F5400 X2.75 Y5.25
;TIME_ELAPSED:35.744670
;LAYER:2
M106 S85 P1
M566 X1200 Y1200
;TYPE:WALL-INNER
;MESH:MS26-test1.3mf
G1 F6000 X-11.25 Y5.25 E0.87308
G1 X-11.25 Y-5.25 E0.65481
G1 X2.75 Y-5.25 E0.87308
G1 X2.75 Y5.25 E0.65481
M566 X1800 Y1800
G0 F7200 X3.25 Y5.75
M566 X1200 Y1200
G1 F6000 X-11.75 Y5.75 E0.93544
G1 X-11.75 Y-5.75 E0.71717
G1 X3.25 Y-5.75 E0.93544
G1 X3.25 Y5.75 E0.71717
M566 X1800 Y1800
G0 F7200 X3.75 Y6.25
M566 X1200 Y1200
G1 F6000 X-12.25 Y6.25 E0.9978
G1 X-12.25 Y-6.25 E0.77953
G1 X3.75 Y-6.25 E0.9978
G1 X3.75 Y6.25 E0.77953
M566 X1800 Y1800
G0 F7200 X4.25 Y5.75
M566 X1200 Y1200
;TYPE:WALL-OUTER
G1 F3000 X11.75 Y5.75 E0.46772
G1 X11.75 Y-5.75 E0.71717
G1 X4.25 Y-5.75 E0.46772
G1 X4.25 Y5.75 E0.71717
M566 X1800 Y1800
G0 F7200 X4.5 Y5.75
G0 X4.5 Y5.85
G0 X12.68 Y6.68
G0 X12.75 Y6.75
M566 X1200 Y1200
G1 F3000 X-12.75 Y6.75 E1.59025
G1 X-12.75 Y-6.75 E0.8419
G1 X12.75 Y-6.75 E1.59025
G1 X12.75 Y6.75 E0.8419
M566 X1800 Y1800
G0 F7200 X12.5 Y6.75
G0 X12.5 Y6.65
G0 X3.972 Y5.778
G0 X2.26 Y4.76
M566 X1200 Y1200
;TYPE:SKIN
G1 F3000 X-10.76 Y4.76 E0.81196
G1 X-10.76 Y-4.76 E0.59369
G1 X2.26 Y-4.76 E0.81196
G1 X2.26 Y4.76 E0.59369
M566 X1800 Y1800
G0 F7200 X1.829 Y-4.533
M566 X1200 Y1200
G1 F3000 X2.035 Y-4.328 E0.01812
M566 X1800 Y1800
G0 F7200 X2.035 Y-3.621
M566 X1200 Y1200
G1 F3000 X1.122 Y-4.533 E0.08048
M566 X1800 Y1800
G0 F7200 X0.415 Y-4.533
M566 X1200 Y1200
G1 F3000 X2.035 Y-2.914 E0.14283
M566 X1800 Y1800
G0 F7200 X2.035 Y-2.207
M566 X1200 Y1200
G1 F3000 X-.291 Y-4.533 E0.20514
M566 X1800 Y1800
G0 F7200 X-.998 Y-4.533
M566 X1200 Y1200
