;FLAVOR:RepRap
;TIME:3112
;Filament used: 10.602m
;Layer height: 0.3
;MINX:-59.75
;MINY:-30.816
;MINZ:0.4
;MAXX:59.75
;MAXY:32.584
;MAXZ:10.9
;POSTPROCESSED
;Generated with Cura_SteamEngine 4.13.1
T0
M190 S60
M104 S220
M109 S220
M82 ;absolute extrusion mode
G28 ;Home
G1 Z15.0 F6000 ;Move the platform down 15mm
;Prime the extruder
G92 E0
G1 F200 E3
G92 E0
M83 ;relative extrusion mode
G1 F1500 E-6.5
;LAYER_COUNT:36
;LAYER:0
M107 P1
M204 T5000
M566 X1800 Y1800
G0 F3600 X-.234 Y26.599 Z0.4
M204 P3000
M566 X1200 Y1200
;TYPE:SKIRT
G1 F1500 E6.5
G1 F3000 X-.748 Y26.714 E0.0438
G1 X-1.263 Y26.975 E0.04801
G1 X-1.693 Y27.357 E0.04783
G1 X-2.068 Y27.91 E0.05556
G1 X-2.561 Y28.642 E0.07338
G1 X-3.119 Y29.327 E0.07346
G1 X-3.736 Y29.958 E0.07338
G1 X-4.408 Y30.531 E0.07343
G1 X-5.129 Y31.041 E0.07343
G1 X-5.893 Y31.484 E0.07343
G1 X-6.694 Y31.855 E0.0734
G1 X-7.525 Y32.153 E0.07341
G1 X-8.38 Y32.374 E0.07343
G1 X-9.251 Y32.517 E0.07339
G1 X-10.392 Y32.584 E0.09504
G1 X-50 Y32.584 E3.29342
G1 X-50.882 Y32.544 E0.07341
G1 X-51.757 Y32.424 E0.07344
G1 X-52.617 Y32.226 E0.07338
G1 X-53.456 Y31.951 E0.07342
G1 X-54.267 Y31.601 E0.07345
G1 X-55.042 Y31.179 E0.07338
G1 X-55.777 Y30.688 E0.0735
G1 X-56.464 Y30.134 E0.07338
G1 X-57.097 Y29.519 E0.07339
G1 X-57.673 Y28.85 E0.07341
G1 X-58.186 Y28.131 E0.07344
G1 X-58.631 Y27.368 E0.07345
G1 X-59.006 Y26.569 E0.07339
G1 X-59.307 Y25.739 E0.07341
G1 X-59.532 Y24.885 E0.07343
G1 X-59.678 Y24.014 E0.07343
G1 X-59.75 Y22.834 E0.0983
G1 X-59.75 Y-21.066 E3.6503
G1 X-59.71 Y-21.948 E0.07341
G1 X-59.59 Y-22.823 E0.07344
G1 X-59.392 Y-23.683 E0.07338
G1 X-59.117 Y-24.522 E0.07342
G1 X-58.767 Y-25.333 E0.07345
G1 X-58.345 Y-26.108 E0.07338
G1 X-57.854 Y-26.843 E0.0735
G1 X-57.3 Y-27.53 E0.07338
G1 X-56.685 Y-28.163 E0.07339
G1 X-56.016 Y-28.739 E0.07341
G1 X-55.297 Y-29.252 E0.07344
G1 X-54.534 Y-29.697 E0.07345
G1 X-53.735 Y-30.072 E0.07339
G1 X-52.905 Y-30.373 E0.07341
G1 X-52.051 Y-30.598 E0.07343
G1 X-51.18 Y-30.744 E0.07343
G1 X-50 Y-30.816 E0.0983
G1 X50 Y-30.816 E8.31503
G1 X50.882 Y-30.776 E0.07341
G1 X51.757 Y-30.656 E0.07344
G1 X52.617 Y-30.458 E0.07338
G1 X53.456 Y-30.183 E0.07342
G1 X54.267 Y-29.833 E0.07345
G1 X55.042 Y-29.411 E0.07338
G1 X55.777 Y-28.92 E0.0735
G1 X56.464 Y-28.366 E0.07338
G1 X57.097 Y-27.751 E0.07339
G1 X57.673 Y-27.082 E0.07341
G1 X58.186 Y-26.363 E0.07344
G1 X58.631 Y-25.6 E0.07345
G1 X59.006 Y-24.801 E0.07339
G1 X59.307 Y-23.971 E0.07341
G1 X59.532 Y-23.117 E0.07343
G1 X59.678 Y-22.246 E0.07343
G1 X59.75 Y-21.066 E0.0983
G1 X59.75 Y22.834 E3.6503
G1 X59.71 Y23.716 E0.07341
G1 X59.59 Y24.591 E0.07344
G1 X59.392 Y25.451 E0.07338
G1 X59.117 Y26.29 E0.07342
G1 X58.767 Y27.101 E0.07345
G1 X58.345 Y27.876 E0.07338
G1 X57.854 Y28.611 E0.0735
G1 X57.3 Y29.298 E0.07338
G1 X56.685 Y29.931 E0.07339
G1 X56.016 Y30.507 E0.07341
G1 X55.297 Y31.02 E0.07344
G1 X54.534 Y31.465 E0.07345
G1 X53.735 Y31.84 E0.07339
G1 X52.905 Y32.141 E0.07341
G1 X52.051 Y32.366 E0.07343
G1 X51.18 Y32.512 E0.07343
G1 X50 Y32.584 E0.0983
G1 X10.392 Y32.584 E3.29342
G1 X9.51 Y32.544 E0.07341
G1 X8.635 Y32.424 E0.07344
G1 X7.775 Y32.226 E0.07338
G1 X6.936 Y31.951 E0.07342
G1 X6.125 Y31.601 E0.07345
G1 X5.35 Y31.179 E0.07338
G1 X4.615 Y30.688 E0.0735
G1 X3.928 Y30.134 E0.07338
G1 X3.295 Y29.519 E0.07339
G1 X2.719 Y28.85 E0.07341
G1 X2.074 Y27.921 E0.09404
G1 X1.751 Y27.427 E0.04908
G1 X1.348 Y27.036 E0.04669
G1 X0.862 Y26.76 E0.04647
G1 X0.34 Y26.613 E0.04509
G1 X-.234 Y26.599 E0.04774
M566 X1800 Y1800
G0 F3600 X-.277 Y26.101
M566 X1200 Y1200
G1 F3000 X-.823 Y26.211 E0.04631
G1 X-1.318 Y26.423 E0.04478
G1 X-1.768 Y26.73 E0.0453
G1 X-2.151 Y27.125 E0.04575
G1 X-2.495 Y27.65 E0.05219
G1 X-2.976 Y28.363 E0.07152
G1 X-3.521 Y29.027 E0.07143
G1 X-4.126 Y29.639 E0.07156
G1 X-4.785 Y30.191 E0.07148
G1 X-5.493 Y30.68 E0.07155
G1 X-6.243 Y31.101 E0.07152
G1 X-7.028 Y31.451 E0.07147
G1 X-7.843 Y31.726 E0.07152
G1 X-8.68 Y31.924 E0.07152
G1 X-9.532 Y32.044 E0.07154
G1 X-10.392 Y32.084 E0.07159
G1 X-50 Y32.084 E3.29342
G1 X-50.859 Y32.044 E0.0715
G1 X-51.711 Y31.924 E0.07154
G1 X-52.548 Y31.726 E0.07152
G1 X-53.362 Y31.451 E0.07144
G1 X-54.148 Y31.102 E0.07151
G1 X-54.898 Y30.681 E0.07152
G1 X-55.606 Y30.192 E0.07155
G1 X-56.265 Y29.64 E0.07148
G1 X-56.87 Y29.028 E0.07156
G1 X-57.415 Y28.363 E0.07149
G1 X-57.897 Y27.651 E0.07149
G1 X-58.31 Y26.897 E0.07148
G1 X-58.651 Y26.107 E0.07155
G1 X-58.918 Y25.29 E0.07147
G1 X-59.108 Y24.451 E0.07153
G1 X-59.218 Y23.598 E0.07151
G1 X-59.25 Y22.834 E0.06358
G1 X-59.25 Y-21.066 E3.6503
G1 X-59.21 Y-21.925 E0.0715
G1 X-59.09 Y-22.777 E0.07154
G1 X-58.892 Y-23.614 E0.07152
G1 X-58.617 Y-24.428 E0.07144
G1 X-58.268 Y-25.214 E0.07151
G1 X-57.847 Y-25.964 E0.07152
G1 X-57.358 Y-26.672 E0.07155
G1 X-56.806 Y-27.331 E0.07148
G1 X-56.194 Y-27.936 E0.07156
G1 X-55.529 Y-28.481 E0.07149
G1 X-54.817 Y-28.963 E0.07149
G1 X-54.063 Y-29.376 E0.07148
G1 X-53.273 Y-29.717 E0.07155
G1 X-52.456 Y-29.984 E0.07147
G1 X-51.617 Y-30.174 E0.07153
G1 X-50.764 Y-30.284 E0.07151
G1 X-50 Y-30.316 E0.06358
G1 X50 Y-30.316 E8.31503
G1 X50.859 Y-30.276 E0.0715
G1 X51.711 Y-30.156 E0.07154
G1 X52.548 Y-29.958 E0.07152
G1 X53.362 Y-29.683 E0.07144
G1 X54.148 Y-29.334 E0.07151
G1 X54.898 Y-28.913 E0.07152
G1 X55.606 Y-28.424 E0.07155
G1 X56.265 Y-27.872 E0.07148
G1 X56.87 Y-27.26 E0.07156
G1 X57.415 Y-26.595 E0.07149
G1 X57.897 Y-25.883 E0.07149
G1 X58.31 Y-25.129 E0.07148
G1 X58.651 Y-24.339 E0.07155
G1 X58.918 Y-23.522 E0.07147
G1 X59.108 Y-22.683 E0.07153
G1 X59.218 Y-21.83 E0.07151
G1 X59.25 Y-21.066 E0.06358
G1 X59.25 Y22.834 E3.6503
G1 X59.21 Y23.693 E0.0715
G1 X59.09 Y24.545 E0.07154
G1 X58.892 Y25.382 E0.07152
G1 X58.617 Y26.196 E0.07144
G1 X58.268 Y26.982 E0.07151
G1 X57.847 Y27.732 E0.07152
G1 X57.358 Y28.44 E0.07155
G1 X56.806 Y29.099 E0.07148
G1 X56.194 Y29.704 E0.07156
G1 X55.529 Y30.249 E0.07149
G1 X54.817 Y30.731 E0.07149
G1 X54.063 Y31.144 E0.07148
G1 X53.273 Y31.485 E0.07155
G1 X52.456 Y31.752 E0.07147
G1 X51.617 Y31.942 E0.07153
G1 X50.764 Y32.052 E0.07151
G1 X50 Y32.084 E0.06358
G1 X10.392 Y32.084 E3.29342
G1 X9.533 Y32.044 E0.0715
G1 X8.681 Y31.924 E0.07154
G1 X7.844 Y31.726 E0.07152
G1 X7.03 Y31.451 E0.07144
G1 X6.244 Y31.102 E0.07151
G1 X5.494 Y30.681 E0.07152
G1 X4.786 Y30.192 E0.07155
G1 X4.127 Y29.64 E0.07148
G1 X3.522 Y29.028 E0.07156
G1 X2.977 Y28.363 E0.07149
G1 X2.501 Y27.66 E0.07059
G1 X2.148 Y27.122 E0.0535
G1 X1.776 Y26.737 E0.04452
G1 X1.314 Y26.42 E0.04659
G1 X0.816 Y26.21 E0.04494
G1 X0.264 Y26.099 E0.04682
G1 X-.277 Y26.101 E0.04498
M566 X1800 Y1800
G0 F3600 X-.178 Y25.592
M566 X1200 Y1200
G1 F3000 X-.845 Y25.698 E0.05616
G1 X-1.43 Y25.918 E0.05197
G1 X-1.957 Y26.242 E0.05144
G1 X-2.437 Y26.688 E0.05448
G1 X-2.723 Y27.065 E0.03935
G1 X-2.921 Y27.39 E0.03164
G1 X-3.391 Y28.082 E0.06956
G1 X-3.924 Y28.727 E0.06957
G1 X-4.516 Y29.317 E0.0695
G1 X-5.162 Y29.849 E0.06959
G1 X-5.855 Y30.316 E0.06949
G1 X-6.591 Y30.715 E0.06961
G1 X-7.36 Y31.042 E0.06948
G1 X-8.158 Y31.294 E0.06958
G1 X-8.976 Y31.469 E0.06956
G1 X-9.807 Y31.564 E0.06955
G1 X-10.392 Y31.584 E0.04867
G1 X-50 Y31.584 E3.29342
G1 X-50.835 Y31.544 E0.06951
G1 X-51.663 Y31.424 E0.06957
G1 X-52.476 Y31.226 E0.06958
G1 X-53.266 Y30.952 E0.06953
G1 X-54.026 Y30.603 E0.06954
G1 X-54.749 Y30.183 E0.06953
G1 X-55.429 Y29.696 E0.06955
G1 X-56.06 Y29.146 E0.0696
G1 X-56.635 Y28.539 E0.06952
G1 X-57.149 Y27.879 E0.06956
G1 X-57.598 Y27.173 E0.06957
G1 X-57.978 Y26.428 E0.06954
G1 X-58.285 Y25.65 E0.06955
G1 X-58.516 Y24.846 E0.06956
G1 X-58.669 Y24.024 E0.06952
G1 X-58.75 Y22.834 E0.09918
G1 X-58.75 Y-21.066 E3.6503
G1 X-58.71 Y-21.901 E0.06951
G1 X-58.59 Y-22.729 E0.06957
G1 X-58.392 Y-23.542 E0.06958
G1 X-58.118 Y-24.332 E0.06953
G1 X-57.769 Y-25.092 E0.06954
G1 X-57.349 Y-25.815 E0.06953
G1 X-56.862 Y-26.495 E0.06955
G1 X-56.312 Y-27.126 E0.0696
G1 X-55.705 Y-27.701 E0.06952
G1 X-55.045 Y-28.215 E0.06956
G1 X-54.339 Y-28.664 E0.06957
G1 X-53.594 Y-29.044 E0.06954
G1 X-52.816 Y-29.351 E0.06955
G1 X-52.012 Y-29.582 E0.06956
G1 X-51.19 Y-29.735 E0.06952
G1 X-50 Y-29.816 E0.09918
G1 X50 Y-29.816 E8.31503
G1 X50.835 Y-29.776 E0.06951
G1 X51.663 Y-29.656 E0.06957
G1 X52.476 Y-29.458 E0.06958
G1 X53.266 Y-29.184 E0.06953
G1 X54.026 Y-28.835 E0.06954
G1 X54.749 Y-28.415 E0.06953
G1 X55.429 Y-27.928 E0.06955
G1 X56.06 Y-27.378 E0.0696
G1 X56.635 Y-26.771 E0.06952
G1 X57.149 Y-26.111 E0.06956
G1 X57.598 Y-25.405 E0.06957
G1 X57.978 Y-24.66 E0.06954
G1 X58.285 Y-23.882 E0.06955
G1 X58.516 Y-23.078 E0.06956
G1 X58.669 Y-22.256 E0.06952
G1 X58.75 Y-21.066 E0.09918
G1 X58.75 Y22.834 E3.6503
G1 X58.71 Y23.669 E0.06951
G1 X58.59 Y24.497 E0.06957
G1 X58.392 Y25.31 E0.06958
G1 X58.118 Y26.1 E0.06953
G1 X57.769 Y26.86 E0.06954
G1 X57.349 Y27.583 E0.06953
G1 X56.862 Y28.263 E0.06955
G1 X56.312 Y28.894 E0.0696
G1 X55.705 Y29.469 E0.06952
G1 X55.045 Y29.983 E0.06956
G1 X54.339 Y30.432 E0.06957
G1 X53.594 Y30.812 E0.06954
G1 X52.816 Y31.119 E0.06955
G1 X52.012 Y31.35 E0.06956
G1 X51.19 Y31.503 E0.06952
G1 X50 Y31.584 E0.09918
G1 X10.392 Y31.584 E3.29342
G1 X9.557 Y31.544 E0.06951
G1 X8.729 Y31.424 E0.06957
G1 X7.916 Y31.226 E0.06958
G1 X7.126 Y30.952 E0.06953
G1 X6.366 Y30.603 E0.06954
G1 X5.643 Y30.183 E0.06953
G1 X4.963 Y29.696 E0.06955
G1 X4.332 Y29.146 E0.0696
G1 X3.757 Y28.539 E0.06952
G1 X3.243 Y27.879 E0.06956
G1 X2.927 Y27.399 E0.04778
G1 X2.629 Y26.928 E0.04634
G1 X2.206 Y26.45 E0.05307
G1 X1.693 Y26.062 E0.05348
G1 X1.085 Y25.773 E0.05598
G1 X0.491 Y25.624 E0.05092
G1 X-.178 Y25.592 E0.05569
M566 X1800 Y1800
G0 F3600 X-.384 Y25.106
M566 X1200 Y1200
G1 F3000 X-.944 Y25.208 E0.04733
G1 X-1.468 Y25.386 E0.04602
G1 X-1.952 Y25.635 E0.04526
G1 X-2.41 Y25.963 E0.04684
G1 X-2.806 Y26.35 E0.04604
G1 X-3.147 Y26.8 E0.04695
G1 X-3.348 Y27.129 E0.03206
G1 X-3.805 Y27.801 E0.06757
G1 X-4.325 Y28.425 E0.06754
G1 X-4.904 Y28.994 E0.0675
G1 X-5.536 Y29.504 E0.06753
G1 X-6.216 Y29.949 E0.06757
G1 X-6.936 Y30.325 E0.06754
G1 X-7.689 Y30.629 E0.06752
G1 X-8.468 Y30.857 E0.06749
G1 X-9.267 Y31.007 E0.0676
G1 X-10.392 Y31.084 E0.09376
G1 X-50 Y31.084 E3.29342
G1 X-50.811 Y31.044 E0.06752
G1 X-51.614 Y30.924 E0.06751
G1 X-52.402 Y30.727 E0.06754
G1 X-53.167 Y30.452 E0.0676
G1 X-53.9 Y30.104 E0.06747
G1 X-54.596 Y29.685 E0.06755
G1 X-55.247 Y29.2 E0.0675
G1 X-55.848 Y28.653 E0.06757
G1 X-56.392 Y28.05 E0.06753
G1 X-56.874 Y27.396 E0.06755
G1 X-57.289 Y26.698 E0.06752
G1 X-57.634 Y25.963 E0.06751
G1 X-57.904 Y25.197 E0.06753
G1 X-58.098 Y24.409 E0.06748
G1 X-58.214 Y23.605 E0.06755
G1 X-58.25 Y22.834 E0.06418
G1 X-58.25 Y-21.066 E3.6503
G1 X-58.21 Y-21.877 E0.06752
G1 X-58.09 Y-22.68 E0.06751
G1 X-57.893 Y-23.468 E0.06754
G1 X-57.618 Y-24.233 E0.0676
G1 X-57.27 Y-24.966 E0.06747
G1 X-56.851 Y-25.662 E0.06755
G1 X-56.366 Y-26.313 E0.0675
G1 X-55.819 Y-26.914 E0.06757
G1 X-55.216 Y-27.458 E0.06753
G1 X-54.562 Y-27.94 E0.06755
G1 X-53.864 Y-28.355 E0.06752
G1 X-53.129 Y-28.7 E0.06751
G1 X-52.363 Y-28.97 E0.06753
G1 X-51.575 Y-29.164 E0.06748
G1 X-50.771 Y-29.28 E0.06755
G1 X-50 Y-29.316 E0.06418
G1 X50 Y-29.316 E8.31503
G1 X50.811 Y-29.276 E0.06752
G1 X51.614 Y-29.156 E0.06751
G1 X52.402 Y-28.959 E0.06754
G1 X53.167 Y-28.684 E0.0676
G1 X53.9 Y-28.336 E0.06747
G1 X54.596 Y-27.917 E0.06755
G1 X55.247 Y-27.432 E0.0675
G1 X55.848 Y-26.885 E0.06757
G1 X56.392 Y-26.282 E0.06753
G1 X56.874 Y-25.628 E0.06755
G1 X57.289 Y-24.93 E0.06752
G1 X57.634 Y-24.195 E0.06751
G1 X57.904 Y-23.429 E0.06753
G1 X58.098 Y-22.641 E0.06748
G1 X58.214 Y-21.837 E0.06755
G1 X58.25 Y-21.066 E0.06418
G1 X58.25 Y22.834 E3.6503
G1 X58.21 Y23.645 E0.06752
G1 X58.09 Y24.448 E0.06751
G1 X57.893 Y25.236 E0.06754
G1 X57.618 Y26.001 E0.0676
G1 X57.27 Y26.734 E0.06747
G1 X56.851 Y27.43 E0.06755
G1 X56.366 Y28.081 E0.0675
G1 X55.819 Y28.682 E0.06757
G1 X55.216 Y29.226 E0.06753
G1 X54.562 Y29.708 E0.06755
G1 X53.864 Y30.123 E0.06752
G1 X53.129 Y30.468 E0.06751
G1 X52.363 Y30.738 E0.06753
G1 X51.575 Y30.932 E0.06748
G1 X50.771 Y31.048 E0.06755
G1 X50 Y31.084 E0.06418
G1 X10.392 Y31.084 E3.29342
G1 X9.581 Y31.044 E0.06752
G1 X8.778 Y30.924 E0.06751
G1 X7.99 Y30.727 E0.06754
G1 X7.225 Y30.452 E0.0676
G1 X6.492 Y30.104 E0.06747
G1 X5.796 Y29.685 E0.06755
G1 X5.145 Y29.2 E0.0675
G1 X4.544 Y28.653 E0.06757
G1 X4 Y28.05 E0.06753
G1 X3.354 Y27.138 E0.09293
G1 X3.033 Y26.634 E0.04969
G1 X2.669 Y26.203 E0.04691
G1 X2.264 Y25.847 E0.04484
G1 X1.791 Y25.541 E0.04684
G1 X1.264 Y25.306 E0.04798
G1 X0.741 Y25.159 E0.04517
G1 X0.179 Y25.091 E0.04707
G1 X-.384 Y25.106 E0.04683
M566 X1800 Y1800
G0 F3600 X-.43 Y24.608
M566 X1200 Y1200
G1 F3000 X-1.077 Y24.726 E0.05469
G1 X-1.649 Y24.919 E0.0502
G1 X-2.196 Y25.198 E0.05106
G1 X-2.744 Y25.591 E0.05607
G1 X-3.193 Y26.032 E0.05233
G1 X-3.566 Y26.526 E0.05147
G1 X-3.775 Y26.869 E0.0334
G1 X-4.219 Y27.519 E0.06545
G1 X-4.726 Y28.121 E0.06544
G1 X-5.291 Y28.669 E0.06545
G1 X-5.909 Y29.156 E0.06542
G1 X-6.574 Y29.578 E0.06549
G1 X-7.278 Y29.931 E0.06548
G1 X-8.014 Y30.21 E0.06545
G1 X-8.774 Y30.413 E0.06541
G1 X-9.551 Y30.538 E0.06544
G1 X-10.392 Y30.584 E0.07003
G1 X-50 Y30.584 E3.29342
G1 X-50.786 Y30.544 E0.06544
G1 X-51.564 Y30.425 E0.06544
G1 X-52.326 Y30.227 E0.06546
G1 X-53.064 Y29.953 E0.06546
G1 X-53.77 Y29.605 E0.06545
G1 X-54.438 Y29.188 E0.06548
G1 X-55.059 Y28.705 E0.06542
G1 X-55.629 Y28.161 E0.06552
G1 X-56.14 Y27.563 E0.06541
G1 X-56.588 Y26.916 E0.06544
G1 X-56.968 Y26.226 E0.0655
G1 X-57.276 Y25.502 E0.06542
G1 X-57.509 Y24.75 E0.06546
G1 X-57.665 Y23.979 E0.06541
G1 X-57.75 Y22.834 E0.09547
G1 X-57.75 Y-21.066 E3.6503
G1 X-57.71 Y-21.852 E0.06544
G1 X-57.591 Y-22.63 E0.06544
G1 X-57.393 Y-23.392 E0.06546
G1 X-57.119 Y-24.13 E0.06546
G1 X-56.771 Y-24.836 E0.06545
G1 X-56.354 Y-25.504 E0.06548
G1 X-55.871 Y-26.125 E0.06542
G1 X-55.327 Y-26.695 E0.06552
G1 X-54.729 Y-27.206 E0.06541
G1 X-54.082 Y-27.654 E0.06544
G1 X-53.392 Y-28.034 E0.0655
G1 X-52.668 Y-28.342 E0.06542
G1 X-51.916 Y-28.575 E0.06546
G1 X-51.145 Y-28.731 E0.06541
G1 X-50 Y-28.816 E0.09547
G1 X50 Y-28.816 E8.31503
G1 X50.786 Y-28.776 E0.06544
G1 X51.564 Y-28.657 E0.06544
G1 X52.326 Y-28.459 E0.06546
G1 X53.064 Y-28.185 E0.06546
G1 X53.77 Y-27.837 E0.06545
G1 X54.438 Y-27.42 E0.06548
G1 X55.059 Y-26.937 E0.06542
G1 X55.629 Y-26.393 E0.06552
G1 X56.14 Y-25.795 E0.06541
G1 X56.588 Y-25.148 E0.06544
G1 X56.968 Y-24.458 E0.0655
G1 X57.276 Y-23.734 E0.06542
G1 X57.509 Y-22.982 E0.06546
G1 X57.665 Y-22.211 E0.06541
G1 X57.75 Y-21.066 E0.09547
G1 X57.75 Y22.834 E3.6503
G1 X57.71 Y23.62 E0.06544
G1 X57.591 Y24.398 E0.06544
G1 X57.393 Y25.16 E0.06546
G1 X57.119 Y25.898 E0.06546
G1 X56.771 Y26.604 E0.06545
G1 X56.354 Y27.272 E0.06548
G1 X55.871 Y27.893 E0.06542
G1 X55.327 Y28.463 E0.06552
G1 X54.729 Y28.974 E0.06541
G1 X54.082 Y29.422 E0.06544
G1 X53.392 Y29.802 E0.0655
G1 X52.668 Y30.11 E0.06542
G1 X51.916 Y30.343 E0.06546
G1 X51.145 Y30.499 E0.06541
G1 X50 Y30.584 E0.09547
G1 X10.392 Y30.584 E3.29342
G1 X9.606 Y30.544 E0.06544
G1 X8.828 Y30.425 E0.06544
G1 X8.066 Y30.227 E0.06546
G1 X7.328 Y29.953 E0.06546
G1 X6.622 Y29.605 E0.06545
G1 X5.954 Y29.188 E0.06548
G1 X5.333 Y28.705 E0.06542
G1 X4.763 Y28.161 E0.06552
G1 X4.252 Y27.563 E0.06541
G1 X3.78 Y26.877 E0.06924
G1 X3.444 Y26.349 E0.05204
G1 X3.029 Y25.855 E0.05365
G1 X2.572 Y25.453 E0.05061
G1 X2.044 Y25.11 E0.05235
G1 X1.448 Y24.841 E0.05437
G1 X0.839 Y24.669 E0.05262
G1 X0.229 Y24.593 E0.05111
G1 X-.43 Y24.608 E0.05481
M566 X1800 Y1800
G0 F3600 X-.243 Y24.092
M566 X1200 Y1200
G1 F3000 X-.932 Y24.179 E0.05775
G1 X-1.609 Y24.366 E0.0584
G1 X-2.072 Y24.561 E0.04177
G1 X-2.679 Y24.914 E0.05839
G1 X-3.216 Y25.34 E0.057
G1 X-3.57 Y25.704 E0.04222
G1 X-3.984 Y26.252 E0.05711
G1 X-4.202 Y26.609 E0.03478
G1 X-4.632 Y27.237 E0.06329
G1 X-5.126 Y27.817 E0.06335
G1 X-5.677 Y28.341 E0.06323
G1 X-6.281 Y28.805 E0.06333
G1 X-6.929 Y29.204 E0.06328
G1 X-7.616 Y29.532 E0.0633
G1 X-8.334 Y29.786 E0.06333
G1 X-9.074 Y29.963 E0.06327
G1 X-9.829 Y30.062 E0.06332
G1 X-10.392 Y30.084 E0.04685
G1 X-50 Y30.084 E3.29342
G1 X-50.76 Y30.044 E0.06328
G1 X-51.512 Y29.925 E0.06331
G1 X-52.247 Y29.727 E0.06329
G1 X-52.958 Y29.453 E0.06336
